; generated by Slic3r 0.9.9 on 2013-07-04 at 20:43:55

; layer_height = 0.25
; perimeters = 2
; top_solid_layers = 2
; bottom_solid_layers = 2
; fill_density = 0.4
; perimeter_speed = 25
; infill_speed = 50
; travel_speed = 50
; nozzle_diameter = 0.4
; filament_diameter = 2.78
; extrusion_multiplier = 1
; perimeters extrusion width = 0.53mm
; infill extrusion width = 0.53mm
; solid infill extrusion width = 0.53mm
; top infill extrusion width = 0.53mm
; first layer extrusion width = 0.50mm

G21 ; set units to millimeters
M107 ; disable fan
M190 S70 ; wait for bed temperature to be reached
M104 S200 ; set temperature
G28 X0 Y0 ; Home X and Y
G0 Z10 ; Move Z up 10
G28 Z0 ; Home Z
M109 S200 ; wait for temperature to be reached
G90 ; use absolute coordinates
G92 E0 ; reset extrusion distance
M82 ; use absolute distances for extrusion
G1 F1800.000 E-1.80000 ; retract
G92 E0 ; reset extrusion distance
G1 Z0.250 F3000.000 ; move to next layer (0)
G1 X77.950 Y19.697 ; move to first skirt point
G1 F1800.000 E1.80000 ; compensate retraction
G1 X82.950 Y4.697 F1050.000 E2.11164 ; skirt
G1 X83.580 Y3.287 E2.14208 ; skirt
G1 X84.500 Y2.047 E2.17251 ; skirt
G1 X85.650 Y1.017 E2.20294 ; skirt
G1 X86.990 Y0.247 E2.23340 ; skirt
G1 X88.460 Y-0.233 E2.26387 ; skirt
G1 X90.000 Y-0.393 E2.29439 ; skirt
G1 X110.000 Y-0.393 E2.68858 ; skirt
G1 X111.540 Y-0.233 E2.71910 ; skirt
G1 X113.010 Y0.247 E2.74958 ; skirt
G1 X114.350 Y1.017 E2.78004 ; skirt
G1 X115.500 Y2.047 E2.81047 ; skirt
G1 X116.420 Y3.287 E2.84090 ; skirt
G1 X117.050 Y4.697 E2.87134 ; skirt
G1 X122.050 Y19.697 E3.18298 ; skirt
G1 X122.330 Y20.807 E3.20554 ; skirt
G1 X122.430 Y21.947 E3.22809 ; skirt
G1 X124.420 Y175.936 E6.26343 ; skirt
G1 X124.390 Y176.806 E6.28059 ; skirt
G1 X124.020 Y180.346 E6.35074 ; skirt
G1 X123.900 Y181.117 E6.36610 ; skirt
G1 X123.700 Y181.857 E6.38121 ; skirt
G1 X122.610 Y185.237 E6.45121 ; skirt
G1 X122.320 Y185.987 E6.46706 ; skirt
G1 X121.950 Y186.697 E6.48284 ; skirt
G1 X120.150 Y189.786 E6.55332 ; skirt
G1 X119.740 Y190.427 E6.56830 ; skirt
G1 X119.260 Y191.017 E6.58329 ; skirt
G1 X116.900 Y193.647 E6.65294 ; skirt
G1 X116.350 Y194.197 E6.66827 ; skirt
G1 X115.740 Y194.697 E6.68381 ; skirt
G1 X112.860 Y196.786 E6.75395 ; skirt
G1 X112.200 Y197.207 E6.76937 ; skirt
G1 X111.510 Y197.556 E6.78462 ; skirt
G1 X108.270 Y198.996 E6.85450 ; skirt
G1 X107.550 Y199.276 E6.86973 ; skirt
G1 X106.800 Y199.476 E6.88503 ; skirt
G1 X103.320 Y200.216 E6.95515 ; skirt
G1 X102.550 Y200.337 E6.97051 ; skirt
G1 X101.770 Y200.387 E6.98591 ; skirt
G1 X98.220 Y200.387 E7.05588 ; skirt
G1 X97.440 Y200.337 E7.07129 ; skirt
G1 X96.670 Y200.216 E7.08665 ; skirt
G1 X93.190 Y199.476 E7.15677 ; skirt
G1 X92.450 Y199.276 E7.17188 ; skirt
G1 X91.730 Y199.006 E7.18703 ; skirt
G1 X88.480 Y197.566 E7.25710 ; skirt
G1 X87.770 Y197.207 E7.27279 ; skirt
G1 X87.110 Y196.776 E7.28831 ; skirt
G1 X84.240 Y194.686 E7.35829 ; skirt
G1 X83.640 Y194.197 E7.37356 ; skirt
G1 X83.100 Y193.656 E7.38861 ; skirt
G1 X80.720 Y191.017 E7.45867 ; skirt
G1 X80.230 Y190.406 E7.47409 ; skirt
G1 X79.800 Y189.756 E7.48945 ; skirt
G1 X78.020 Y186.677 E7.55956 ; skirt
G1 X77.660 Y185.976 E7.57508 ; skirt
G1 X77.380 Y185.237 E7.59067 ; skirt
G1 X76.290 Y181.857 E7.66067 ; skirt
G1 X76.090 Y181.117 E7.67578 ; skirt
G1 X75.970 Y180.346 E7.69114 ; skirt
G1 X75.600 Y176.806 E7.76129 ; skirt
G1 X75.570 Y175.936 E7.77845 ; skirt
G1 X77.570 Y21.947 E10.81379 ; skirt
G1 X77.670 Y20.807 E10.83634 ; skirt
G1 X77.932 Y19.766 E10.85749 ; skirt
G1 X78.400 Y19.847 F3000.000 ; move to first skirt point
G1 X83.400 Y4.847 F1050.000 E11.16913 ; skirt
G1 X84.000 Y3.527 E11.19771 ; skirt
G1 X84.850 Y2.367 E11.22605 ; skirt
G1 X85.930 Y1.407 E11.25453 ; skirt
G1 X87.190 Y0.687 E11.28313 ; skirt
G1 X88.560 Y0.237 E11.31156 ; skirt
G1 X90.000 Y0.087 E11.34009 ; skirt
G1 X110.000 Y0.087 E11.73428 ; skirt
G1 X111.440 Y0.237 E11.76282 ; skirt
G1 X112.810 Y0.687 E11.79124 ; skirt
G1 X114.070 Y1.407 E11.81984 ; skirt
G1 X115.150 Y2.367 E11.84832 ; skirt
G1 X116.000 Y3.527 E11.87667 ; skirt
G1 X116.600 Y4.847 E11.90525 ; skirt
G1 X121.600 Y19.847 E12.21688 ; skirt
G1 X121.860 Y20.887 E12.23801 ; skirt
G1 X121.960 Y21.957 E12.25919 ; skirt
G1 X123.950 Y175.947 E15.29453 ; skirt
G1 X123.910 Y176.756 E15.31052 ; skirt
G1 X123.540 Y180.297 E15.38067 ; skirt
G1 X123.430 Y181.017 E15.39503 ; skirt
G1 X123.240 Y181.716 E15.40932 ; skirt
G1 X122.150 Y185.096 E15.47932 ; skirt
G1 X121.880 Y185.786 E15.49392 ; skirt
G1 X121.540 Y186.457 E15.50873 ; skirt
G1 X119.740 Y189.547 E15.57921 ; skirt
G1 X119.350 Y190.147 E15.59332 ; skirt
G1 X118.910 Y190.697 E15.60720 ; skirt
G1 X116.550 Y193.327 E15.67685 ; skirt
G1 X116.030 Y193.846 E15.69134 ; skirt
G1 X115.460 Y194.306 E15.70578 ; skirt
G1 X112.580 Y196.397 E15.77591 ; skirt
G1 X111.960 Y196.797 E15.79046 ; skirt
G1 X111.320 Y197.126 E15.80465 ; skirt
G1 X108.080 Y198.566 E15.87453 ; skirt
G1 X107.400 Y198.827 E15.88888 ; skirt
G1 X106.700 Y199.006 E15.90312 ; skirt
G1 X103.220 Y199.746 E15.97325 ; skirt
G1 X102.500 Y199.867 E15.98763 ; skirt
G1 X101.770 Y199.906 E16.00204 ; skirt
G1 X98.220 Y199.906 E16.07201 ; skirt
G1 X97.490 Y199.867 E16.08642 ; skirt
G1 X96.770 Y199.746 E16.10081 ; skirt
G1 X93.290 Y199.006 E16.17093 ; skirt
G1 X92.600 Y198.827 E16.18499 ; skirt
G1 X91.920 Y198.566 E16.19934 ; skirt
G1 X88.670 Y197.126 E16.26940 ; skirt
G1 X88.010 Y196.797 E16.28394 ; skirt
G1 X87.390 Y196.387 E16.29859 ; skirt
G1 X84.520 Y194.297 E16.36857 ; skirt
G1 X83.960 Y193.846 E16.38273 ; skirt
G1 X83.450 Y193.337 E16.39694 ; skirt
G1 X81.070 Y190.697 E16.46700 ; skirt
G1 X80.610 Y190.126 E16.48144 ; skirt
G1 X80.220 Y189.517 E16.49571 ; skirt
G1 X78.440 Y186.436 E16.56582 ; skirt
G1 X78.100 Y185.776 E16.58045 ; skirt
G1 X77.840 Y185.096 E16.59480 ; skirt
G1 X76.750 Y181.716 E16.66480 ; skirt
G1 X76.560 Y181.017 E16.67910 ; skirt
G1 X76.450 Y180.297 E16.69345 ; skirt
G1 X76.080 Y176.756 E16.76360 ; skirt
G1 X76.040 Y175.947 E16.77959 ; skirt
G1 X78.040 Y21.957 E19.81493 ; skirt
G1 X78.140 Y20.887 E19.83611 ; skirt
G1 X78.383 Y19.916 E19.85583 ; skirt
G1 X78.850 Y19.997 F3000.000 ; move to first skirt point
G1 X83.850 Y4.997 F1050.000 E20.16746 ; skirt
G1 X84.410 Y3.777 E20.19392 ; skirt
G1 X85.210 Y2.687 E20.22057 ; skirt
G1 X86.210 Y1.787 E20.24709 ; skirt
G1 X87.380 Y1.117 E20.27366 ; skirt
G1 X88.660 Y0.707 E20.30015 ; skirt
G1 X90.000 Y0.567 E20.32671 ; skirt
G1 X110.000 Y0.567 E20.72090 ; skirt
G1 X111.340 Y0.707 E20.74745 ; skirt
G1 X112.620 Y1.117 E20.77394 ; skirt
G1 X113.790 Y1.787 E20.80052 ; skirt
G1 X114.790 Y2.687 E20.82703 ; skirt
G1 X115.590 Y3.777 E20.85368 ; skirt
G1 X116.150 Y4.997 E20.88014 ; skirt
G1 X121.150 Y19.997 E21.19178 ; skirt
G1 X121.390 Y20.967 E21.21147 ; skirt
G1 X121.480 Y21.967 E21.23126 ; skirt
G1 X123.470 Y175.957 E24.26660 ; skirt
G1 X123.430 Y176.707 E24.28141 ; skirt
G1 X123.060 Y180.246 E24.35156 ; skirt
G1 X122.960 Y180.917 E24.36491 ; skirt
G1 X122.790 Y181.566 E24.37815 ; skirt
G1 X121.700 Y184.947 E24.44815 ; skirt
G1 X121.450 Y185.596 E24.46187 ; skirt
G1 X121.130 Y186.216 E24.47563 ; skirt
G1 X119.330 Y189.306 E24.54611 ; skirt
G1 X118.970 Y189.857 E24.55906 ; skirt
G1 X118.550 Y190.376 E24.57224 ; skirt
G1 X116.190 Y193.006 E24.64189 ; skirt
G1 X115.710 Y193.487 E24.65526 ; skirt
G1 X115.180 Y193.917 E24.66872 ; skirt
G1 X112.300 Y196.006 E24.73885 ; skirt
G1 X111.730 Y196.376 E24.75225 ; skirt
G1 X111.120 Y196.686 E24.76573 ; skirt
G1 X107.880 Y198.126 E24.83561 ; skirt
G1 X107.250 Y198.367 E24.84890 ; skirt
G1 X106.600 Y198.547 E24.86220 ; skirt
G1 X103.120 Y199.286 E24.93232 ; skirt
G1 X102.450 Y199.387 E24.94567 ; skirt
G1 X101.770 Y199.427 E24.95910 ; skirt
G1 X98.220 Y199.427 E25.02907 ; skirt
G1 X97.540 Y199.387 E25.04249 ; skirt
G1 X96.870 Y199.286 E25.05584 ; skirt
G1 X93.390 Y198.547 E25.12597 ; skirt
G1 X92.740 Y198.367 E25.13926 ; skirt
G1 X92.120 Y198.126 E25.15236 ; skirt
G1 X88.870 Y196.686 E25.22243 ; skirt
G1 X88.250 Y196.376 E25.23609 ; skirt
G1 X87.680 Y196.006 E25.24948 ; skirt
G1 X84.810 Y193.917 E25.31946 ; skirt
G1 X84.280 Y193.487 E25.33291 ; skirt
G1 X83.810 Y193.017 E25.34601 ; skirt
G1 X81.430 Y190.376 E25.41607 ; skirt
G1 X81.000 Y189.846 E25.42952 ; skirt
G1 X80.630 Y189.276 E25.44291 ; skirt
G1 X78.850 Y186.197 E25.51303 ; skirt
G1 X78.540 Y185.587 E25.52651 ; skirt
G1 X78.290 Y184.947 E25.54006 ; skirt
G1 X77.200 Y181.566 E25.61005 ; skirt
G1 X77.030 Y180.917 E25.62329 ; skirt
G1 X76.930 Y180.246 E25.63665 ; skirt
G1 X76.560 Y176.707 E25.70680 ; skirt
G1 X76.520 Y175.957 E25.72160 ; skirt
G1 X78.520 Y21.967 E28.75694 ; skirt
G1 X78.610 Y20.967 E28.77673 ; skirt
G1 X78.833 Y20.066 E28.79501 ; skirt
G1 F1800.000 E26.99501 ; retract
G92 E0 ; reset extrusion distance
G1 X89.282 Y27.329 F3000.000 ; move to first perimeter point
G1 F1800.000 E1.80000 ; compensate retraction
G1 X111.733 Y27.329 F1050.000 E2.24250 ; perimeter
G1 X89.282 Y49.779 E2.86828 ; perimeter
G1 X89.282 Y27.400 E3.30936 ; perimeter
G1 X89.761 Y27.807 F3000.000 ; move to first perimeter point
G1 X110.578 Y27.807 F735.000 E3.71966 ; perimeter
G1 X89.761 Y48.624 E4.29990 ; perimeter
G1 X89.761 Y27.879 E4.70878 ; perimeter
G1 X89.761 Y27.329 F3000.000 ; move inwards before travel
G1 F1800.000 E2.90878 ; retract
G92 E0 ; reset extrusion distance
G1 X110.718 Y35.314 F3000.000 ; move to first perimeter point
G1 F1800.000 E1.80000 ; compensate retraction
G1 X110.718 Y57.764 F1050.000 E2.24250 ; perimeter
G1 X88.267 Y57.764 E2.68499 ; perimeter
G1 X110.667 Y35.364 E3.30936 ; perimeter
G1 X110.239 Y36.469 F3000.000 ; move to first perimeter point
G1 X110.239 Y57.286 F735.000 E3.71966 ; perimeter
G1 X89.422 Y57.286 E4.12995 ; perimeter
G1 X110.189 Y36.520 E4.70878 ; perimeter
G1 X110.702 Y36.345 F3000.000 ; move inwards before travel
G1 X110.718 Y62.329 ; move to first perimeter point
G1 X110.718 Y84.779 F1050.000 E5.15127 ; perimeter
G1 X88.267 Y62.329 E5.77706 ; perimeter
G1 X110.646 Y62.329 E6.21814 ; perimeter
G1 X110.239 Y62.807 F3000.000 ; move to first perimeter point
G1 X110.239 Y83.624 F735.000 E6.62843 ; perimeter
G1 X89.422 Y62.807 E7.20868 ; perimeter
G1 X110.167 Y62.807 E7.61756 ; perimeter
G1 X110.718 Y62.807 F3000.000 ; move inwards before travel
G1 F1800.000 E5.81756 ; retract
G92 E0 ; reset extrusion distance
G1 X89.282 Y70.314 F3000.000 ; move to first perimeter point
G1 F1800.000 E1.80000 ; compensate retraction
G1 X111.733 Y92.764 F1050.000 E2.42578 ; perimeter
G1 X89.282 Y92.764 E2.86828 ; perimeter
G1 X89.282 Y70.385 E3.30936 ; perimeter
G1 X89.761 Y71.469 F3000.000 ; move to first perimeter point
G1 X110.578 Y92.286 F735.000 E3.88960 ; perimeter
G1 X89.761 Y92.286 E4.29990 ; perimeter
G1 X89.761 Y71.541 E4.70878 ; perimeter
G1 X90.000 Y71.054 F3000.000 ; move inwards before travel
G1 X89.282 Y97.329 ; move to first perimeter point
G1 X111.733 Y97.329 F1050.000 E5.15127 ; perimeter
G1 X89.282 Y119.779 E5.77706 ; perimeter
G1 X89.282 Y97.400 E6.21814 ; perimeter
G1 X89.761 Y97.807 F3000.000 ; move to first perimeter point
G1 X110.578 Y97.807 F735.000 E6.62843 ; perimeter
G1 X89.761 Y118.624 E7.20868 ; perimeter
G1 X89.761 Y97.879 E7.61756 ; perimeter
G1 X89.761 Y97.329 F3000.000 ; move inwards before travel
G1 F1800.000 E5.81756 ; retract
G92 E0 ; reset extrusion distance
G1 X110.718 Y105.314 F3000.000 ; move to first perimeter point
G1 F1800.000 E1.80000 ; compensate retraction
G1 X110.718 Y127.764 F1050.000 E2.24250 ; perimeter
G1 X88.267 Y127.764 E2.68499 ; perimeter
G1 X110.667 Y105.364 E3.30936 ; perimeter
G1 X110.239 Y106.469 F3000.000 ; move to first perimeter point
G1 X110.239 Y127.286 F735.000 E3.71966 ; perimeter
G1 X89.422 Y127.286 E4.12995 ; perimeter
G1 X110.189 Y106.520 E4.70878 ; perimeter
G1 X110.702 Y106.345 F3000.000 ; move inwards before travel
G1 X110.718 Y132.329 ; move to first perimeter point
G1 X110.718 Y154.779 F1050.000 E5.15127 ; perimeter
G1 X88.267 Y132.329 E5.77706 ; perimeter
G1 X110.646 Y132.329 E6.21814 ; perimeter
G1 X110.239 Y132.807 F3000.000 ; move to first perimeter point
G1 X110.239 Y153.624 F735.000 E6.62843 ; perimeter
G1 X89.422 Y132.807 E7.20868 ; perimeter
G1 X110.167 Y132.807 E7.61756 ; perimeter
G1 X110.718 Y132.807 F3000.000 ; move inwards before travel
G1 F1800.000 E5.81756 ; retract
G92 E0 ; reset extrusion distance
G1 X89.282 Y140.314 F3000.000 ; move to first perimeter point
G1 F1800.000 E1.80000 ; compensate retraction
G1 X111.733 Y162.764 F1050.000 E2.42578 ; perimeter
G1 X89.282 Y162.764 E2.86828 ; perimeter
G1 X89.282 Y140.385 E3.30936 ; perimeter
G1 X89.761 Y141.469 F3000.000 ; move to first perimeter point
G1 X110.578 Y162.286 F735.000 E3.88960 ; perimeter
G1 X89.761 Y162.286 E4.29990 ; perimeter
G1 X89.761 Y141.541 E4.70878 ; perimeter
G1 X90.000 Y141.054 F3000.000 ; move inwards before travel
G1 F1800.000 E2.90878 ; retract
G92 E0 ; reset extrusion distance
G1 X106.786 Y181.943 F3000.000 ; move to first perimeter point
G1 F1800.000 E1.80000 ; compensate retraction
G1 X109.214 Y181.943 F630.000 E1.84787 ; perimeter
G1 X110.429 Y184.047 E1.89575 ; perimeter
G1 X109.214 Y186.150 E1.94363 ; perimeter
G1 X106.786 Y186.150 E1.99150 ; perimeter
G1 X105.571 Y184.047 E2.03938 ; perimeter
G1 X106.750 Y182.005 E2.08584 ; perimeter
G1 X107.062 Y182.421 F3000.000 ; move to first perimeter point
G1 X108.938 Y182.421 F630.000 E2.12282 ; perimeter
G1 X109.876 Y184.047 E2.15981 ; perimeter
G1 X108.938 Y185.672 E2.19680 ; perimeter
G1 X107.062 Y185.672 E2.23378 ; perimeter
G1 X106.124 Y184.047 E2.27076 ; perimeter
G1 X107.026 Y182.483 E2.30634 ; perimeter
G1 X107.145 Y181.950 F3000.000 ; move inwards before travel
G1 F1800.000 E0.50634 ; retract
G92 E0 ; reset extrusion distance
G1 X106.786 Y170.150 F3000.000 ; move to first perimeter point
G1 F1800.000 E1.80000 ; compensate retraction
G1 X105.571 Y168.047 F630.000 E1.84788 ; perimeter
G1 X106.786 Y165.943 E1.89575 ; perimeter
G1 X109.214 Y165.943 E1.94363 ; perimeter
G1 X110.429 Y168.047 E1.99150 ; perimeter
G1 X109.214 Y170.150 E2.03938 ; perimeter
G1 X106.857 Y170.150 E2.08584 ; perimeter
G1 X107.062 Y169.672 F3000.000 ; move to first perimeter point
G1 X106.124 Y168.047 F630.000 E2.12283 ; perimeter
G1 X107.062 Y166.421 E2.15981 ; perimeter
G1 X108.938 Y166.421 E2.19680 ; perimeter
G1 X109.876 Y168.047 E2.23378 ; perimeter
G1 X108.938 Y169.672 E2.27077 ; perimeter
G1 X107.134 Y169.672 E2.30634 ; perimeter
G1 X106.612 Y169.835 F3000.000 ; move inwards before travel
G1 X105.815 Y170.232 ; move to first perimeter point
G1 X107.122 Y171.934 F1050.000 E2.34865 ; perimeter
G1 X107.944 Y173.918 E2.39096 ; perimeter
G1 X108.224 Y176.047 E2.43327 ; perimeter
G1 X107.944 Y178.175 E2.47559 ; perimeter
G1 X107.122 Y180.159 E2.51790 ; perimeter
G1 X105.815 Y181.861 E2.56021 ; perimeter
G1 X104.112 Y183.169 E2.60253 ; perimeter
G1 X102.129 Y183.990 E2.64484 ; perimeter
G1 X100.000 Y184.271 E2.68716 ; perimeter
G1 X97.872 Y183.990 E2.72947 ; perimeter
G1 X95.888 Y183.169 E2.77178 ; perimeter
G1 X94.185 Y181.861 E2.81410 ; perimeter
G1 X92.878 Y180.159 E2.85641 ; perimeter
G1 X92.056 Y178.175 E2.89873 ; perimeter
G1 X91.776 Y176.047 E2.94104 ; perimeter
G1 X92.056 Y173.918 E2.98335 ; perimeter
G1 X92.878 Y171.934 E3.02567 ; perimeter
G1 X94.185 Y170.232 E3.06798 ; perimeter
G1 X95.888 Y168.924 E3.11030 ; perimeter
G1 X97.872 Y168.103 E3.15261 ; perimeter
G1 X100.000 Y167.822 E3.19492 ; perimeter
G1 X102.129 Y168.103 E3.23724 ; perimeter
G1 X104.112 Y168.924 E3.27955 ; perimeter
G1 X105.758 Y170.188 E3.32045 ; perimeter
G1 X105.474 Y170.573 F3000.000 ; move to first perimeter point
G1 X106.704 Y172.176 F735.000 E3.36028 ; perimeter
G1 X107.478 Y174.043 E3.40011 ; perimeter
G1 X107.741 Y176.047 E3.43994 ; perimeter
G1 X107.478 Y178.050 E3.47977 ; perimeter
G1 X106.704 Y179.917 E3.51960 ; perimeter
G1 X105.474 Y181.520 E3.55943 ; perimeter
G1 X103.871 Y182.750 E3.59926 ; perimeter
G1 X102.004 Y183.524 E3.63909 ; perimeter
G1 X100.000 Y183.788 E3.67892 ; perimeter
G1 X97.996 Y183.524 E3.71875 ; perimeter
G1 X96.129 Y182.751 E3.75858 ; perimeter
