; generated by Slic3r 0.9.9 on 2013-07-05 at 18:51:34

; layer_height = 0.25
; perimeters = 2
; top_solid_layers = 2
; bottom_solid_layers = 2
; fill_density = 0.4
; perimeter_speed = 25
; infill_speed = 50
; travel_speed = 50
; nozzle_diameter = 0.4
; filament_diameter = 2.78
; extrusion_multiplier = 1
; perimeters extrusion width = 0.53mm
; infill extrusion width = 0.53mm
; solid infill extrusion width = 0.53mm
; top infill extrusion width = 0.53mm
; first layer extrusion width = 0.50mm

G21 ; set units to millimeters
M107 ; disable fan
M190 S70 ; wait for bed temperature to be reached
M104 S200 ; set temperature
G28 X0 Y0 ; Home X and Y
G0 Z10 ; Move Z up 10
G28 Z0 ; Home Z
M109 S200 ; wait for temperature to be reached
G90 ; use absolute coordinates
G92 E0 ; reset extrusion distance
M82 ; use absolute distances for extrusion
G1 F1800.000 E-1.80000 ; retract
G92 E0 ; reset extrusion distance
G1 Z0.250 F3000.000 ; move to next layer (0)
G1 X77.740 Y20.437 ; move to first skirt point
G1 F1800.000 E1.80000 ; compensate retraction
G1 X78.220 Y18.997 F1050.000 E1.82992 ; skirt
G1 X83.220 Y7.867 E2.07040 ; skirt
G1 X83.920 Y6.637 E2.09830 ; skirt
G1 X84.850 Y5.557 E2.12639 ; skirt
G1 X85.960 Y4.677 E2.15431 ; skirt
G1 X87.220 Y4.017 E2.18234 ; skirt
G1 X88.590 Y3.617 E2.21047 ; skirt
G1 X90.000 Y3.477 E2.23840 ; skirt
G1 X110.000 Y3.477 E2.63259 ; skirt
G1 X111.410 Y3.617 E2.66052 ; skirt
G1 X112.780 Y4.017 E2.68865 ; skirt
G1 X114.040 Y4.677 E2.71668 ; skirt
G1 X115.150 Y5.557 E2.74460 ; skirt
G1 X116.080 Y6.637 E2.77269 ; skirt
G1 X116.780 Y7.867 E2.80059 ; skirt
G1 X121.780 Y18.997 E3.04108 ; skirt
G1 X122.260 Y20.437 E3.07099 ; skirt
G1 X122.430 Y21.947 E3.10094 ; skirt
G1 X124.420 Y175.936 E6.13628 ; skirt
G1 X124.390 Y176.806 E6.15344 ; skirt
G1 X124.020 Y180.346 E6.22359 ; skirt
G1 X123.900 Y181.117 E6.23895 ; skirt
G1 X123.700 Y181.857 E6.25406 ; skirt
G1 X122.610 Y185.237 E6.32406 ; skirt
G1 X122.320 Y185.987 E6.33991 ; skirt
G1 X121.950 Y186.697 E6.35569 ; skirt
G1 X120.150 Y189.786 E6.42617 ; skirt
G1 X119.740 Y190.427 E6.44115 ; skirt
G1 X119.260 Y191.017 E6.45614 ; skirt
G1 X116.900 Y193.647 E6.52579 ; skirt
G1 X116.350 Y194.197 E6.54112 ; skirt
G1 X115.740 Y194.697 E6.55666 ; skirt
G1 X112.860 Y196.786 E6.62680 ; skirt
G1 X112.200 Y197.207 E6.64222 ; skirt
G1 X111.510 Y197.556 E6.65747 ; skirt
G1 X108.270 Y198.996 E6.72735 ; skirt
G1 X107.550 Y199.276 E6.74257 ; skirt
G1 X106.800 Y199.476 E6.75787 ; skirt
G1 X103.320 Y200.216 E6.82800 ; skirt
G1 X102.550 Y200.337 E6.84336 ; skirt
G1 X101.770 Y200.387 E6.85876 ; skirt
G1 X98.220 Y200.387 E6.92873 ; skirt
G1 X97.440 Y200.337 E6.94414 ; skirt
G1 X96.670 Y200.216 E6.95950 ; skirt
G1 X93.190 Y199.476 E7.02962 ; skirt
G1 X92.450 Y199.276 E7.04473 ; skirt
G1 X91.730 Y199.006 E7.05988 ; skirt
G1 X88.480 Y197.566 E7.12995 ; skirt
G1 X87.770 Y197.207 E7.14564 ; skirt
G1 X87.110 Y196.776 E7.16116 ; skirt
G1 X84.240 Y194.686 E7.23114 ; skirt
G1 X83.640 Y194.197 E7.24641 ; skirt
G1 X83.100 Y193.656 E7.26146 ; skirt
G1 X80.720 Y191.017 E7.33151 ; skirt
G1 X80.230 Y190.406 E7.34694 ; skirt
G1 X79.800 Y189.756 E7.36230 ; skirt
G1 X78.020 Y186.677 E7.43241 ; skirt
G1 X77.660 Y185.976 E7.44792 ; skirt
G1 X77.380 Y185.237 E7.46352 ; skirt
G1 X76.290 Y181.857 E7.53352 ; skirt
G1 X76.090 Y181.117 E7.54862 ; skirt
G1 X75.970 Y180.346 E7.56398 ; skirt
G1 X75.600 Y176.806 E7.63414 ; skirt
G1 X75.570 Y175.936 E7.65129 ; skirt
G1 X77.570 Y21.947 E10.68664 ; skirt
G1 X77.732 Y20.508 E10.71517 ; skirt
G1 X78.210 Y20.547 F3000.000 ; move to first skirt point
G1 X78.650 Y19.197 F1050.000 E10.74316 ; skirt
G1 X83.650 Y8.067 E10.98364 ; skirt
G1 X84.310 Y6.907 E11.00995 ; skirt
G1 X85.180 Y5.897 E11.03622 ; skirt
G1 X86.220 Y5.077 E11.06233 ; skirt
G1 X87.400 Y4.467 E11.08851 ; skirt
G1 X88.680 Y4.087 E11.11482 ; skirt
G1 X90.000 Y3.957 E11.14097 ; skirt
G1 X110.000 Y3.957 E11.53516 ; skirt
G1 X111.320 Y4.087 E11.56130 ; skirt
G1 X112.600 Y4.467 E11.58762 ; skirt
G1 X113.780 Y5.077 E11.61380 ; skirt
G1 X114.820 Y5.897 E11.63990 ; skirt
G1 X115.690 Y6.907 E11.66618 ; skirt
G1 X116.350 Y8.067 E11.69248 ; skirt
G1 X121.350 Y19.197 E11.93297 ; skirt
G1 X121.790 Y20.547 E11.96095 ; skirt
G1 X121.960 Y21.957 E11.98895 ; skirt
G1 X123.950 Y175.947 E15.02429 ; skirt
G1 X123.910 Y176.756 E15.04027 ; skirt
G1 X123.540 Y180.297 E15.11042 ; skirt
G1 X123.430 Y181.017 E15.12478 ; skirt
G1 X123.240 Y181.716 E15.13907 ; skirt
G1 X122.150 Y185.096 E15.20907 ; skirt
G1 X121.880 Y185.786 E15.22368 ; skirt
G1 X121.540 Y186.457 E15.23848 ; skirt
G1 X119.740 Y189.547 E15.30897 ; skirt
G1 X119.350 Y190.147 E15.32307 ; skirt
G1 X118.910 Y190.697 E15.33695 ; skirt
G1 X116.550 Y193.327 E15.40660 ; skirt
G1 X116.030 Y193.846 E15.42109 ; skirt
G1 X115.460 Y194.306 E15.43553 ; skirt
G1 X112.580 Y196.397 E15.50567 ; skirt
G1 X111.960 Y196.797 E15.52021 ; skirt
G1 X111.320 Y197.126 E15.53440 ; skirt
G1 X108.080 Y198.566 E15.60428 ; skirt
G1 X107.400 Y198.827 E15.61863 ; skirt
G1 X106.700 Y199.006 E15.63288 ; skirt
G1 X103.220 Y199.746 E15.70300 ; skirt
G1 X102.500 Y199.867 E15.71739 ; skirt
G1 X101.770 Y199.906 E15.73180 ; skirt
G1 X98.220 Y199.906 E15.80177 ; skirt
G1 X97.490 Y199.867 E15.81618 ; skirt
G1 X96.770 Y199.746 E15.83056 ; skirt
G1 X93.290 Y199.006 E15.90069 ; skirt
G1 X92.600 Y198.827 E15.91474 ; skirt
G1 X91.920 Y198.566 E15.92909 ; skirt
G1 X88.670 Y197.126 E15.99915 ; skirt
G1 X88.010 Y196.797 E16.01370 ; skirt
G1 X87.390 Y196.387 E16.02835 ; skirt
G1 X84.520 Y194.297 E16.09832 ; skirt
G1 X83.960 Y193.846 E16.11248 ; skirt
G1 X83.450 Y193.337 E16.12670 ; skirt
G1 X81.070 Y190.697 E16.19675 ; skirt
G1 X80.610 Y190.126 E16.21119 ; skirt
G1 X80.220 Y189.517 E16.22546 ; skirt
G1 X78.440 Y186.436 E16.29557 ; skirt
G1 X78.100 Y185.776 E16.31021 ; skirt
G1 X77.840 Y185.096 E16.32456 ; skirt
G1 X76.750 Y181.716 E16.39455 ; skirt
G1 X76.560 Y181.017 E16.40885 ; skirt
G1 X76.450 Y180.297 E16.42320 ; skirt
G1 X76.080 Y176.756 E16.49336 ; skirt
G1 X76.040 Y175.947 E16.50934 ; skirt
G1 X78.040 Y21.957 E19.54468 ; skirt
G1 X78.201 Y20.618 E19.57126 ; skirt
G1 X78.670 Y20.647 F3000.000 ; move to first skirt point
G1 X79.090 Y19.397 F1050.000 E19.59725 ; skirt
G1 X84.090 Y8.267 E19.83774 ; skirt
G1 X84.850 Y6.987 E19.86708 ; skirt
G1 X85.880 Y5.917 E19.89635 ; skirt
G1 X87.130 Y5.107 E19.92571 ; skirt
G1 X88.520 Y4.607 E19.95482 ; skirt
G1 X90.000 Y4.437 E19.98419 ; skirt
G1 X110.000 Y4.437 E20.37838 ; skirt
G1 X111.480 Y4.607 E20.40774 ; skirt
G1 X112.870 Y5.107 E20.43686 ; skirt
G1 X114.120 Y5.917 E20.46621 ; skirt
G1 X115.150 Y6.987 E20.49549 ; skirt
G1 X115.910 Y8.267 E20.52483 ; skirt
G1 X120.910 Y19.397 E20.76531 ; skirt
G1 X121.330 Y20.647 E20.79130 ; skirt
G1 X121.480 Y21.967 E20.81749 ; skirt
G1 X123.470 Y175.957 E23.85283 ; skirt
G1 X123.430 Y176.707 E23.86763 ; skirt
G1 X123.060 Y180.246 E23.93778 ; skirt
G1 X122.960 Y180.917 E23.95114 ; skirt
G1 X122.790 Y181.566 E23.96438 ; skirt
G1 X121.700 Y184.947 E24.03438 ; skirt
G1 X121.450 Y185.596 E24.04810 ; skirt
G1 X121.130 Y186.216 E24.06185 ; skirt
G1 X119.330 Y189.306 E24.13234 ; skirt
G1 X118.970 Y189.857 E24.14529 ; skirt
G1 X118.550 Y190.376 E24.15847 ; skirt
G1 X116.190 Y193.006 E24.22811 ; skirt
G1 X115.710 Y193.487 E24.24149 ; skirt
G1 X115.180 Y193.917 E24.25494 ; skirt
G1 X112.300 Y196.006 E24.32508 ; skirt
G1 X111.730 Y196.376 E24.33847 ; skirt
G1 X111.120 Y196.686 E24.35196 ; skirt
G1 X107.880 Y198.126 E24.42184 ; skirt
G1 X107.250 Y198.367 E24.43513 ; skirt
G1 X106.600 Y198.547 E24.44842 ; skirt
G1 X103.120 Y199.286 E24.51855 ; skirt
G1 X102.450 Y199.387 E24.53190 ; skirt
G1 X101.770 Y199.427 E24.54532 ; skirt
G1 X98.220 Y199.427 E24.61529 ; skirt
G1 X97.540 Y199.387 E24.62872 ; skirt
G1 X96.870 Y199.286 E24.64207 ; skirt
G1 X93.390 Y198.547 E24.71219 ; skirt
G1 X92.740 Y198.367 E24.72549 ; skirt
G1 X92.120 Y198.126 E24.73859 ; skirt
G1 X88.870 Y196.686 E24.80865 ; skirt
G1 X88.250 Y196.376 E24.82231 ; skirt
G1 X87.680 Y196.006 E24.83571 ; skirt
G1 X84.810 Y193.917 E24.90568 ; skirt
G1 X84.280 Y193.487 E24.91914 ; skirt
G1 X83.810 Y193.017 E24.93224 ; skirt
G1 X81.430 Y190.376 E25.00229 ; skirt
G1 X81.000 Y189.846 E25.01575 ; skirt
G1 X80.630 Y189.276 E25.02914 ; skirt
G1 X78.850 Y186.197 E25.09925 ; skirt
G1 X78.540 Y185.587 E25.11274 ; skirt
G1 X78.290 Y184.947 E25.12628 ; skirt
G1 X77.200 Y181.566 E25.19628 ; skirt
G1 X77.030 Y180.917 E25.20952 ; skirt
G1 X76.930 Y180.246 E25.22287 ; skirt
G1 X76.560 Y176.707 E25.29303 ; skirt
G1 X76.520 Y175.957 E25.30783 ; skirt
G1 X78.520 Y21.967 E28.34317 ; skirt
G1 X78.662 Y20.718 E28.36794 ; skirt
G1 F1800.000 E26.56794 ; retract
G92 E0 ; reset extrusion distance
G1 X89.282 Y27.329 F3000.000 ; move to first perimeter point
G1 F1800.000 E1.80000 ; compensate retraction
G1 X111.733 Y27.329 F1050.000 E2.24250 ; perimeter
G1 X89.282 Y49.779 E2.86828 ; perimeter
G1 X89.282 Y27.400 E3.30936 ; perimeter
G1 X89.761 Y27.807 F3000.000 ; move to first perimeter point
G1 X110.578 Y27.807 F735.000 E3.71966 ; perimeter
G1 X89.761 Y48.624 E4.29990 ; perimeter
G1 X89.761 Y27.879 E4.70878 ; perimeter
G1 X89.761 Y27.329 F3000.000 ; move inwards before travel
G1 F1800.000 E2.90878 ; retract
G92 E0 ; reset extrusion distance
G1 X110.718 Y35.314 F3000.000 ; move to first perimeter point
G1 F1800.000 E1.80000 ; compensate retraction
G1 X110.718 Y57.764 F1050.000 E2.24250 ; perimeter
G1 X88.267 Y57.764 E2.68499 ; perimeter
G1 X110.667 Y35.364 E3.30936 ; perimeter
G1 X110.239 Y36.469 F3000.000 ; move to first perimeter point
G1 X110.239 Y57.286 F735.000 E3.71966 ; perimeter
G1 X89.422 Y57.286 E4.12995 ; perimeter
G1 X110.189 Y36.520 E4.70878 ; perimeter
G1 X110.702 Y36.345 F3000.000 ; move inwards before travel
G1 X110.718 Y62.329 ; move to first perimeter point
G1 X110.718 Y84.779 F1050.000 E5.15127 ; perimeter
G1 X88.267 Y62.329 E5.77706 ; perimeter
G1 X110.646 Y62.329 E6.21814 ; perimeter
G1 X110.239 Y62.807 F3000.000 ; move to first perimeter point
G1 X110.239 Y83.624 F735.000 E6.62843 ; perimeter
G1 X89.422 Y62.807 E7.20868 ; perimeter
G1 X110.167 Y62.807 E7.61756 ; perimeter
G1 X110.718 Y62.807 F3000.000 ; move inwards before travel
G1 F1800.000 E5.81756 ; retract
G92 E0 ; reset extrusion distance
G1 X89.282 Y70.314 F3000.000 ; move to first perimeter point
G1 F1800.000 E1.80000 ; compensate retraction
G1 X111.733 Y92.764 F1050.000 E2.42578 ; perimeter
G1 X89.282 Y92.764 E2.86828 ; perimeter
G1 X89.282 Y70.385 E3.30936 ; perimeter
G1 X89.761 Y71.469 F3000.000 ; move to first perimeter point
G1 X110.578 Y92.286 F735.000 E3.88960 ; perimeter
G1 X89.761 Y92.286 E4.29990 ; perimeter
G1 X89.761 Y71.541 E4.70878 ; perimeter
G1 X90.000 Y71.054 F3000.000 ; move inwards before travel
G1 X89.282 Y97.329 ; move to first perimeter point
G1 X111.733 Y97.329 F1050.000 E5.15127 ; perimeter
G1 X89.282 Y119.779 E5.77706 ; perimeter
G1 X89.282 Y97.400 E6.21814 ; perimeter
G1 X89.761 Y97.807 F3000.000 ; move to first perimeter point
G1 X110.578 Y97.807 F735.000 E6.62843 ; perimeter
G1 X89.761 Y118.624 E7.20868 ; perimeter
G1 X89.761 Y97.879 E7.61756 ; perimeter
G1 X89.761 Y97.329 F3000.000 ; move inwards before travel
G1 F1800.000 E5.81756 ; retract
G92 E0 ; reset extrusion distance
G1 X110.718 Y105.314 F3000.000 ; move to first perimeter point
G1 F1800.000 E1.80000 ; compensate retraction
G1 X110.718 Y127.764 F1050.000 E2.24250 ; perimeter
G1 X88.267 Y127.764 E2.68499 ; perimeter
G1 X110.667 Y105.364 E3.30936 ; perimeter
G1 X110.239 Y106.469 F3000.000 ; move to first perimeter point
G1 X110.239 Y127.286 F735.000 E3.71966 ; perimeter
G1 X89.422 Y127.286 E4.12995 ; perimeter
G1 X110.189 Y106.520 E4.70878 ; perimeter
G1 X110.702 Y106.345 F3000.000 ; move inwards before travel
G1 X110.718 Y132.329 ; move to first perimeter point
G1 X110.718 Y154.779 F1050.000 E5.15127 ; perimeter
G1 X88.267 Y132.329 E5.77706 ; perimeter
G1 X110.646 Y132.329 E6.21814 ; perimeter
G1 X110.239 Y132.807 F3000.000 ; move to first perimeter point
G1 X110.239 Y153.624 F735.000 E6.62843 ; perimeter
G1 X89.422 Y132.807 E7.20868 ; perimeter
G1 X110.167 Y132.807 E7.61756 ; perimeter
G1 X110.718 Y132.807 F3000.000 ; move inwards before travel
G1 F1800.000 E5.81756 ; retract
G92 E0 ; reset extrusion distance
G1 X89.282 Y140.314 F3000.000 ; move to first perimeter point
G1 F1800.000 E1.80000 ; compensate retraction
G1 X111.733 Y162.764 F1050.000 E2.42578 ; perimeter
G1 X89.282 Y162.764 E2.86828 ; perimeter
G1 X89.282 Y140.385 E3.30936 ; perimeter
G1 X89.761 Y141.469 F3000.000 ; move to first perimeter point
G1 X110.578 Y162.286 F735.000 E3.88960 ; perimeter
G1 X89.761 Y162.286 E4.29990 ; perimeter
G1 X89.761 Y141.541 E4.70878 ; perimeter
G1 X90.000 Y141.054 F3000.000 ; move inwards before travel
G1 F1800.000 E2.90878 ; retract
G92 E0 ; reset extrusion distance
G1 X106.786 Y181.943 F3000.000 ; move to first perimeter point
G1 F1800.000 E1.80000 ; compensate retraction
G1 X109.214 Y181.943 F630.000 E1.84787 ; perimeter
G1 X110.429 Y184.047 E1.89575 ; perimeter
G1 X109.214 Y186.150 E1.94363 ; perimeter
G1 X106.786 Y186.150 E1.99150 ; perimeter
G1 X105.571 Y184.047 E2.03938 ; perimeter
G1 X106.750 Y182.005 E2.08584 ; perimeter
G1 X107.062 Y182.421 F3000.000 ; move to first perimeter point
G1 X108.938 Y182.421 F630.000 E2.12282 ; perimeter
G1 X109.876 Y184.047 E2.15981 ; perimeter
G1 X108.938 Y185.672 E2.19680 ; perimeter
G1 X107.062 Y185.672 E2.23378 ; perimeter
G1 X106.124 Y184.047 E2.27076 ; perimeter
G1 X107.026 Y182.483 E2.30634 ; perimeter
G1 X107.145 Y181.950 F3000.000 ; move inwards before travel
G1 F1800.000 E0.50634 ; retract
G92 E0 ; reset extrusion distance
G1 X106.786 Y170.150 F3000.000 ; move to first perimeter point
G1 F1800.000 E1.80000 ; compensate retraction
G1 X105.571 Y168.047 F630.000 E1.84788 ; perimeter
G1 X106.786 Y165.943 E1.89575 ; perimeter
G1 X109.214 Y165.943 E1.94363 ; perimeter
G1 X110.429 Y168.047 E1.99150 ; perimeter
G1 X109.214 Y170.150 E2.03938 ; perimeter
G1 X106.857 Y170.150 E2.08584 ; perimeter
G1 X107.062 Y169.672 F3000.000 ; move to first perimeter point
G1 X106.124 Y168.047 F630.000 E2.12283 ; perimeter
G1 X107.062 Y166.421 E2.15981 ; perimeter
G1 X108.938 Y166.421 E2.19680 ; perimeter
G1 X109.876 Y168.047 E2.23378 ; perimeter
G1 X108.938 Y169.672 E2.27077 ; perimeter
G1 X107.134 Y169.672 E2.30634 ; perimeter
G1 X106.612 Y169.835 F3000.000 ; move inwards before travel
G1 X105.815 Y170.232 ; move to first perimeter point
G1 X107.122 Y171.934 F1050.000 E2.34865 ; perimeter
G1 X107.944 Y173.918 E2.39096 ; perimeter
G1 X108.224 Y176.047 E2.43327 ; perimeter
G1 X107.944 Y178.175 E2.47559 ; perimeter
G1 X107.122 Y180.159 E2.51790 ; perimeter
G1 X105.815 Y181.861 E2.56021 ; perimeter
G1 X104.112 Y183.169 E2.60253 ; perimeter
G1 X102.129 Y183.990 E2.64484 ; perimeter
G1 X100.000 Y184.271 E2.68716 ; perimeter
G1 X97.871 Y183.990 E2.72947 ; perimeter
G1 X95.888 Y183.169 E2.77178 ; perimeter
G1 X94.185 Y181.861 E2.81410 ; perimeter
G1 X92.878 Y180.159 E2.85641 ; perimeter
G1 X92.056 Y178.175 E2.89873 ; perimeter
G1 X91.776 Y176.047 E2.94104 ; perimeter
G1 X92.056 Y173.918 E2.98335 ; perimeter
G1 X92.878 Y171.934 E3.02567 ; perimeter
G1 X94.185 Y170.232 E3.06798 ; perimeter
G1 X95.888 Y168.924 E3.11030 ; perimeter
G1 X97.871 Y168.103 E3.15261 ; perimeter
G1 X100.000 Y167.822 E3.19492 ; perimeter
G1 X102.129 Y168.103 E3.23724 ; perimeter
G1 X104.112 Y168.924 E3.27955 ; perimeter
G1 X105.758 Y170.188 E3.32045 ; perimeter
G1 X105.474 Y170.573 F3000.000 ; move to first perimeter point
G1 X106.704 Y172.176 F735.000 E3.36028 ; perimeter
G1 X107.478 Y174.043 E3.40011 ; perimeter
G1 X107.741 Y176.047 E3.43994 ; perimeter
G1 X107.478 Y178.050 E3.47977 ; perimeter
G1 X106.704 Y179.917 E3.51960 ; perimeter
G1 X105.474 Y181.520 E3.55943 ; perimeter
G1 X103.871 Y182.750 E3.59926 ; perimeter
G1 X102.004 Y183.524 E3.63909 ; perimeter
G1 X100.000 Y183.788 E3.67892 ; perimeter
G1 X97.996 Y183.524 E3.71875 ; perimeter
G1 X96.129 Y182.751 E3.75858 ; perimeter
G1 X94.526 Y181.520 E3.79842 ; perimeter
G1 X93.296 Y179.917 E3.83824 ; perimeter
