;Generated with Cura_SteamEngine 13.06.4
M140 S60.000000
M109 T0 S195.000000
T0
M190 S60.000000
;Sliced at: Tue 27 Aug 2013 21:25:26
;Basic settings: Layer height: 0.25 Walls: 1 Fill: 40
;Print time: #P_TIME#
;Filament used: #F_AMNT#m #F_WGHT#g
;Filament cost: #F_COST#
G21        ;metric values
G90        ;absolute positioning
M107       ;start with the fan off

G28 X0 Y0  ;move X/Y to min endstops
G28 Z0     ;move Z to min endstops

G1 Z15.0 F3000 ;move the platform down 15mm

G92 E0                  ;zero the extruded length
G1 F200 E3              ;extrude 3mm of feed stock
G92 E0                  ;zero the extruded length again
G1 F3000
M117 Printing...

;total_layers=240
;LAYER:0
M107
G0 F1980 X82.77 Y82.76 Z0.25
;TYPE:SKIRT
G1 F1140 X83.76 Y81.76 E0.02760
G1 X84.15 Y81.42 E0.03776
G1 X85.23 Y80.53 E0.06518
G1 X85.64 Y80.24 E0.07488
G1 X86.81 Y79.48 E0.10229
G1 X87.26 Y79.22 E0.11260
G1 X88.52 Y78.58 E0.14029
G1 X88.98 Y78.37 E0.15015
G1 X90.28 Y77.87 E0.17743
G1 X90.76 Y77.71 E0.18736
G1 X92.12 Y77.35 E0.21487
G1 X92.62 Y77.24 E0.22495
G1 X94.01 Y77.02 E0.25245
G1 X94.51 Y76.97 E0.26232
G1 X95.91 Y76.89 E0.28987
G1 X96.44 Y76.89 E0.30014
G1 X97.85 Y76.97 E0.32781
G1 X98.35 Y77.02 E0.33772
G1 X99.73 Y77.24 E0.36518
G1 X100.23 Y77.35 E0.37517
G1 X101.58 Y77.71 E0.40260
G1 X102.07 Y77.87 E0.41253
G1 X103.38 Y78.37 E0.44004
G1 X103.85 Y78.58 E0.45014
G1 X105.10 Y79.22 E0.47761
G1 X105.53 Y79.47 E0.48741
G1 X106.71 Y80.22 E0.51482
G1 X107.13 Y80.53 E0.52506
G1 X108.22 Y81.42 E0.55266
G1 X108.60 Y81.76 E0.56269
G1 X109.59 Y82.75 E0.59021
G1 X109.93 Y83.13 E0.60007
G1 X110.81 Y84.21 E0.62742
G1 X111.11 Y84.62 E0.63726
G1 X111.87 Y85.79 E0.66474
G1 X112.14 Y86.25 E0.67505
G1 X112.78 Y87.51 E0.70275
G1 X112.98 Y87.97 E0.71261
G1 X113.48 Y89.27 E0.73988
G1 X113.64 Y89.75 E0.74981
G1 X114.00 Y91.11 E0.77733
G1 X114.11 Y91.61 E0.78740
G1 X114.33 Y93.00 E0.81490
G1 X114.38 Y93.50 E0.82477
G1 X114.46 Y94.90 E0.85233
G1 X114.46 Y95.42 E0.86259
G1 X114.38 Y96.83 E0.89026
G1 X114.33 Y97.34 E0.90017
G1 X114.11 Y98.72 E0.92763
G1 X114.00 Y99.22 E0.93763
G1 X113.64 Y100.57 E0.96505
G1 X113.49 Y101.05 E0.97498
G1 X112.98 Y102.36 E1.00249
G1 X112.77 Y102.84 E1.01259
G1 X112.14 Y104.08 E1.04007
G1 X111.89 Y104.52 E1.04986
G1 X111.13 Y105.69 E1.07727
G1 X110.82 Y106.12 E1.08751
G1 X109.94 Y107.21 E1.11504
G1 X109.60 Y107.58 E1.12491
G1 X108.60 Y108.58 E1.15250
G1 X108.22 Y108.92 E1.16266
G1 X107.13 Y109.80 E1.19008
G1 X106.73 Y110.10 E1.19979
G1 X105.56 Y110.86 E1.22719
G1 X105.10 Y111.12 E1.23751
G1 X103.84 Y111.76 E1.26520
G1 X103.38 Y111.97 E1.27506
G1 X102.08 Y112.47 E1.30233
G1 X101.60 Y112.62 E1.31226
G1 X100.25 Y112.99 E1.33978
G1 X99.74 Y113.10 E1.34986
G1 X98.36 Y113.32 E1.37735
G1 X97.86 Y113.37 E1.38723
G1 X96.45 Y113.45 E1.41478
G1 X95.93 Y113.45 E1.42505
G1 X94.52 Y113.37 E1.45271
G1 X94.02 Y113.32 E1.46263
G1 X92.63 Y113.10 E1.49008
G1 X92.13 Y112.99 E1.50008
G1 X90.78 Y112.63 E1.52750
G1 X90.30 Y112.47 E1.53744
G1 X88.99 Y111.97 E1.56494
G1 X88.52 Y111.76 E1.57505
G1 X87.27 Y111.12 E1.60252
G1 X86.83 Y110.87 E1.61232
G1 X85.66 Y110.11 E1.63973
G1 X85.24 Y109.81 E1.64997
G1 X84.14 Y108.92 E1.67756
G1 X83.76 Y108.58 E1.68759
G1 X82.77 Y107.58 E1.71511
G1 X82.43 Y107.21 E1.72498
G1 X81.55 Y106.13 E1.75232
G1 X81.26 Y105.72 E1.76217
G1 X80.49 Y104.55 E1.78964
G1 X80.23 Y104.09 E1.79996
G1 X79.59 Y102.83 E1.82765
G1 X79.38 Y102.37 E1.83751
G1 X78.74 Y100.70 E1.87259
G1 X78.61 Y100.14 E1.88388
G1 X78.36 Y99.25 E1.90199
G1 X78.25 Y98.74 E1.91217
G1 X78.03 Y97.35 E1.93975
G1 X77.98 Y96.84 E1.94980
G1 X77.91 Y95.57 E1.97477
G1 X77.91 Y95.31 E1.97983
G1 X77.91 Y95.04 E1.98514
G1 X77.91 Y94.78 E1.99022
G1 X77.98 Y93.51 E2.01502
G1 X78.03 Y93.01 E2.02491
G1 X78.25 Y91.63 E2.05236
G1 X78.36 Y91.12 E2.06246
G1 X78.72 Y89.77 E2.08985
G1 X78.88 Y89.30 E2.09963
G1 X79.38 Y87.98 E2.12723
G1 X79.59 Y87.51 E2.13747
G1 X80.23 Y86.25 E2.16500
G1 X80.48 Y85.82 E2.17480
G1 X81.24 Y84.65 E2.20221
G1 X81.54 Y84.22 E2.21245
G1 X82.43 Y83.13 E2.23997
G1 X82.77 Y82.76 E2.24984
G0 F1980 X83.13 Y83.10
G1 F1140 X84.11 Y82.12 E2.27691
G1 X84.47 Y81.79 E2.28655
G1 X85.54 Y80.93 E2.31346
G1 X85.92 Y80.66 E2.32266
G1 X87.07 Y79.91 E2.34955
G1 X87.50 Y79.65 E2.35935
G1 X88.74 Y79.03 E2.38654
G1 X89.17 Y78.83 E2.39587
G1 X90.45 Y78.34 E2.42261
G1 X90.91 Y78.19 E2.43207
G1 X92.24 Y77.83 E2.45906
G1 X92.71 Y77.73 E2.46864
G1 X94.07 Y77.52 E2.49560
G1 X94.55 Y77.47 E2.50498
G1 X95.93 Y77.39 E2.53202
G1 X96.42 Y77.39 E2.54174
G1 X97.81 Y77.47 E2.56889
G1 X98.28 Y77.52 E2.57831
G1 X99.64 Y77.73 E2.60525
G1 X100.11 Y77.83 E2.61471
G1 X101.44 Y78.19 E2.64165
G1 X101.90 Y78.34 E2.65107
G1 X103.19 Y78.83 E2.67805
G1 X103.63 Y79.03 E2.68766
G1 X104.86 Y79.65 E2.71462
G1 X105.27 Y79.89 E2.72393
G1 X106.42 Y80.64 E2.75082
G1 X106.82 Y80.93 E2.76052
G1 X107.90 Y81.80 E2.78761
G1 X108.26 Y82.12 E2.79710
G1 X109.23 Y83.10 E2.82411
G1 X109.55 Y83.45 E2.83347
G1 X110.41 Y84.52 E2.86032
G1 X110.69 Y84.90 E2.86966
G1 X111.45 Y86.06 E2.89661
G1 X111.70 Y86.49 E2.90642
G1 X112.33 Y87.72 E2.93360
G1 X112.52 Y88.16 E2.94293
G1 X113.01 Y89.43 E2.96968
G1 X113.16 Y89.89 E2.97914
G1 X113.52 Y91.22 E3.00612
G1 X113.62 Y91.70 E3.01570
G1 X113.83 Y93.06 E3.04266
G1 X113.89 Y93.54 E3.05204
G1 X113.96 Y94.91 E3.07908
G1 X113.96 Y95.41 E3.08880
G1 X113.89 Y96.79 E3.11596
G1 X113.83 Y97.27 E3.12538
G1 X113.62 Y98.63 E3.15232
G1 X113.52 Y99.10 E3.16178
G1 X113.16 Y100.43 E3.18872
G1 X113.01 Y100.89 E3.19814
G1 X112.52 Y102.17 E3.22512
G1 X112.32 Y102.62 E3.23472
G1 X111.70 Y103.85 E3.26169
G1 X111.46 Y104.26 E3.27099
G1 X110.72 Y105.41 E3.29789
G1 X110.42 Y105.81 E3.30758
G1 X109.56 Y106.88 E3.33461
G1 X109.24 Y107.24 E3.34397
G1 X108.26 Y108.22 E3.37105
G1 X107.89 Y108.55 E3.38069
G1 X106.83 Y109.41 E3.40759
G1 X106.45 Y109.68 E3.41680
G1 X105.30 Y110.43 E3.44368
G1 X104.86 Y110.69 E3.45349
G1 X103.63 Y111.31 E3.48067
G1 X103.19 Y111.51 E3.49000
G1 X101.92 Y112.00 E3.51675
G1 X101.46 Y112.15 E3.52621
G1 X100.13 Y112.50 E3.55319
G1 X99.65 Y112.61 E3.56277
G1 X98.29 Y112.82 E3.58973
G1 X97.82 Y112.87 E3.59911
G1 X96.44 Y112.95 E3.62615
G1 X95.94 Y112.95 E3.63587
G1 X94.56 Y112.87 E3.66303
G1 X94.08 Y112.82 E3.67245
G1 X92.72 Y112.61 E3.69939
G1 X92.25 Y112.51 E3.70885
G1 X90.92 Y112.15 E3.73579
G1 X90.47 Y112.00 E3.74521
G1 X89.18 Y111.51 E3.77219
G1 X88.73 Y111.31 E3.78179
G1 X87.50 Y110.69 E3.80876
G1 X87.09 Y110.45 E3.81806
G1 X85.94 Y109.70 E3.84496
G1 X85.54 Y109.41 E3.85465
G1 X84.47 Y108.54 E3.88175
G1 X84.11 Y108.22 E3.89124
G1 X83.13 Y107.24 E3.91824
G1 X82.81 Y106.89 E3.92761
G1 X81.95 Y105.82 E3.95445
G1 X81.67 Y105.44 E3.96379
G1 X80.92 Y104.28 E3.99075
G1 X80.67 Y103.85 E4.00055
G1 X80.04 Y102.61 E4.02774
G1 X79.84 Y102.18 E4.03707
G1 X79.22 Y100.55 E4.07125
G1 X79.10 Y100.03 E4.08164
G1 X78.85 Y99.13 E4.10001
G1 X78.75 Y98.65 E4.10971
G1 X78.53 Y97.28 E4.13675
G1 X78.48 Y96.80 E4.14629
G1 X78.41 Y95.55 E4.17088
G1 X78.41 Y95.30 E4.17566
G1 X78.41 Y95.04 E4.18071
G1 X78.41 Y94.80 E4.18556
G1 X78.48 Y93.55 E4.20997
G1 X78.53 Y93.08 E4.21932
G1 X78.74 Y91.72 E4.24628
G1 X78.84 Y91.24 E4.25586
G1 X79.20 Y89.92 E4.28274
G1 X79.35 Y89.47 E4.29200
G1 X79.84 Y88.17 E4.31908
G1 X80.04 Y87.72 E4.32882
G1 X80.67 Y86.49 E4.35584
G1 X80.91 Y86.08 E4.36515
G1 X81.65 Y84.93 E4.39205
G1 X81.94 Y84.53 E4.40174
G1 X82.81 Y83.46 E4.42877
G1 X83.13 Y83.10 E4.43813
G0 F1980 X83.49 Y83.45
G1 F1140 X84.45 Y82.49 E4.46469
G1 X84.80 Y82.17 E4.47382
G1 X85.84 Y81.33 E4.50021
G1 X86.20 Y81.07 E4.50892
G1 X87.33 Y80.33 E4.53530
G1 X87.74 Y80.09 E4.54456
G1 X88.95 Y79.48 E4.57122
G1 X89.36 Y79.29 E4.58008
G1 X90.61 Y78.81 E4.60631
G1 X91.05 Y78.67 E4.61524
G1 X92.35 Y78.32 E4.64171
G1 X92.81 Y78.22 E4.65077
G1 X94.14 Y78.01 E4.67722
G1 X94.59 Y77.97 E4.68611
G1 X95.94 Y77.89 E4.71262
G1 X96.41 Y77.89 E4.72183
G1 X97.77 Y77.97 E4.74845
G1 X98.22 Y78.01 E4.75738
G1 X99.55 Y78.22 E4.78380
G1 X100.00 Y78.32 E4.79276
G1 X101.30 Y78.67 E4.81917
G1 X101.73 Y78.81 E4.82807
G1 X103.00 Y79.29 E4.85455
G1 X103.42 Y79.48 E4.86364
G1 X104.62 Y80.09 E4.89008
G1 X105.01 Y80.32 E4.89888
G1 X106.14 Y81.05 E4.92525
G1 X106.52 Y81.33 E4.93444
G1 X107.57 Y82.18 E4.96102
G1 X107.91 Y82.49 E4.97000
G1 X108.87 Y83.44 E4.99650
G1 X109.17 Y83.78 E5.00535
G1 X110.02 Y84.82 E5.03170
G1 X110.28 Y85.19 E5.04052
G1 X111.02 Y86.32 E5.06696
G1 X111.26 Y86.73 E5.07623
G1 X111.88 Y87.94 E5.10289
G1 X112.06 Y88.35 E5.11174
G1 X112.54 Y89.60 E5.13798
G1 X112.68 Y90.03 E5.14690
G1 X113.03 Y91.34 E5.17338
G1 X113.13 Y91.79 E5.18244
G1 X113.34 Y93.12 E5.20889
G1 X113.39 Y93.58 E5.21777
G1 X113.46 Y94.93 E5.24428
G1 X113.46 Y95.40 E5.25349
G1 X113.39 Y96.75 E5.28012
G1 X113.34 Y97.21 E5.28904
G1 X113.13 Y98.54 E5.31547
G1 X113.03 Y98.99 E5.32442
G1 X112.68 Y100.29 E5.35084
G1 X112.54 Y100.72 E5.35974
G1 X112.06 Y101.98 E5.38622
G1 X111.87 Y102.41 E5.39531
G1 X111.26 Y103.61 E5.42174
G1 X111.03 Y104.00 E5.43055
G1 X110.30 Y105.13 E5.45692
G1 X110.03 Y105.51 E5.46611
G1 X109.17 Y106.56 E5.49262
G1 X108.87 Y106.89 E5.50147
G1 X107.92 Y107.85 E5.52803
G1 X107.57 Y108.16 E5.53716
G1 X106.52 Y109.01 E5.56355
G1 X106.16 Y109.27 E5.57226
G1 X105.03 Y110.01 E5.59863
G1 X104.63 Y110.25 E5.60790
G1 X103.41 Y110.86 E5.63456
G1 X103.00 Y111.05 E5.64341
G1 X101.75 Y111.53 E5.66965
G1 X101.32 Y111.67 E5.67857
G1 X100.01 Y112.02 E5.70505
G1 X99.56 Y112.11 E5.71411
G1 X98.23 Y112.33 E5.74056
G1 X97.78 Y112.37 E5.74944
G1 X96.42 Y112.45 E5.77595
G1 X95.95 Y112.45 E5.78516
G1 X94.60 Y112.37 E5.81179
G1 X94.14 Y112.33 E5.82072
G1 X92.81 Y112.11 E5.84714
G1 X92.37 Y112.02 E5.85609
G1 X91.06 Y111.67 E5.88251
G1 X90.63 Y111.53 E5.89141
G1 X89.37 Y111.05 E5.91789
G1 X88.95 Y110.86 E5.92698
G1 X87.74 Y110.25 E5.95341
G1 X87.36 Y110.02 E5.96222
G1 X86.22 Y109.29 E5.98859
G1 X85.85 Y109.01 E5.99778
G1 X84.79 Y108.16 E6.02436
G1 X84.45 Y107.85 E6.03333
G1 X83.50 Y106.90 E6.05984
G1 X83.19 Y106.56 E6.06869
G1 X82.35 Y105.52 E6.09503
G1 X82.08 Y105.15 E6.10386
G1 X81.34 Y104.02 E6.13030
G1 X81.11 Y103.61 E6.13956
G1 X80.49 Y102.40 E6.16623
G1 X80.31 Y101.99 E6.17508
G1 X79.70 Y100.40 E6.20833
G1 X79.58 Y99.90 E6.21842
G1 X79.34 Y99.01 E6.23650
G1 X79.24 Y98.55 E6.24567
G1 X79.03 Y97.22 E6.27220
G1 X78.98 Y96.76 E6.28120
G1 X78.91 Y95.53 E6.30542
G1 X78.91 Y95.30 E6.30995
G1 X78.91 Y95.05 E6.31475
G1 X78.91 Y94.82 E6.31929
G1 X78.98 Y93.59 E6.34333
G1 X79.03 Y93.14 E6.35220
G1 X79.24 Y91.81 E6.37864
G1 X79.33 Y91.36 E6.38768
G1 X79.68 Y90.06 E6.41406
G1 X79.82 Y89.63 E6.42282
G1 X80.30 Y88.36 E6.44941
G1 X80.49 Y87.94 E6.45861
G1 X81.11 Y86.73 E6.48511
G1 X81.33 Y86.34 E6.49391
G1 X82.06 Y85.21 E6.52028
G1 X82.34 Y84.83 E6.52947
G1 X83.19 Y83.78 E6.55598
G1 X83.49 Y83.45 E6.56483
G0 F1980 X83.86 Y83.79
G1 F1140 X84.80 Y82.85 E6.59090
G1 X85.12 Y82.56 E6.59950
G1 X86.15 Y81.72 E6.62537
G1 X86.49 Y81.48 E6.63356
G1 X87.59 Y80.76 E6.65943
G1 X87.98 Y80.53 E6.66819
G1 X89.17 Y79.93 E6.69434
G1 X89.56 Y79.76 E6.70265
G1 X90.78 Y79.28 E6.72839
G1 X91.19 Y79.15 E6.73683
G1 X92.47 Y78.81 E6.76280
G1 X92.90 Y78.72 E6.77133
G1 X94.20 Y78.51 E6.79726
G1 X94.63 Y78.46 E6.80563
G1 X95.95 Y78.39 E6.83163
G1 X96.40 Y78.39 E6.84029
G1 X97.73 Y78.46 E6.86643
G1 X98.15 Y78.51 E6.87483
G1 X99.46 Y78.72 E6.90073
G1 X99.88 Y78.81 E6.90917
G1 X101.16 Y79.15 E6.93509
G1 X101.57 Y79.28 E6.94348
G1 X102.80 Y79.75 E6.96946
G1 X103.20 Y79.93 E6.97801
G1 X104.38 Y80.53 E7.00395
G1 X104.75 Y80.75 E7.01224
G1 X105.86 Y81.46 E7.03810
G1 X106.22 Y81.72 E7.04676
G1 X107.25 Y82.56 E7.07281
G1 X107.57 Y82.85 E7.08130
G1 X108.51 Y83.79 E7.10728
G1 X108.79 Y84.10 E7.11563
G1 X109.62 Y85.13 E7.14146
G1 X109.87 Y85.47 E7.14976
G1 X110.59 Y86.58 E7.17570
G1 X110.82 Y86.97 E7.18447
G1 X111.42 Y88.16 E7.21061
G1 X111.59 Y88.54 E7.21892
G1 X112.07 Y89.77 E7.24466
G1 X112.20 Y90.18 E7.25310
G1 X112.55 Y91.46 E7.27907
G1 X112.64 Y91.88 E7.28760
G1 X112.84 Y93.19 E7.31353
G1 X112.89 Y93.62 E7.32190
G1 X112.96 Y94.94 E7.34790
G1 X112.96 Y95.38 E7.35657
G1 X112.89 Y96.72 E7.38270
G1 X112.84 Y97.14 E7.39110
G1 X112.64 Y98.45 E7.41701
G1 X112.55 Y98.87 E7.42544
G1 X112.20 Y100.15 E7.45136
G1 X112.07 Y100.55 E7.45975
G1 X111.60 Y101.79 E7.48573
G1 X111.42 Y102.19 E7.49428
G1 X110.82 Y103.37 E7.52022
G1 X110.61 Y103.74 E7.52852
G1 X109.89 Y104.84 E7.55437
G1 X109.63 Y105.20 E7.56303
G1 X108.80 Y106.23 E7.58903
G1 X108.51 Y106.55 E7.59738
G1 X107.57 Y107.49 E7.62344
G1 X107.24 Y107.78 E7.63204
G1 X106.22 Y108.61 E7.65792
G1 X105.88 Y108.86 E7.66611
G1 X104.77 Y109.58 E7.69197
G1 X104.39 Y109.81 E7.70074
G1 X103.20 Y110.41 E7.72688
G1 X102.81 Y110.58 E7.73520
G1 X101.58 Y111.05 E7.76094
G1 X101.17 Y111.19 E7.76937
G1 X99.89 Y111.53 E7.79534
G1 X99.47 Y111.62 E7.80387
G1 X98.16 Y111.83 E7.82981
G1 X97.74 Y111.88 E7.83818
G1 X96.41 Y111.95 E7.86418
G1 X95.97 Y111.95 E7.87284
G1 X94.64 Y111.88 E7.89898
G1 X94.21 Y111.83 E7.90737
G1 X92.91 Y111.62 E7.93328
G1 X92.48 Y111.53 E7.94172
G1 X91.21 Y111.19 E7.96764
G1 X90.80 Y111.06 E7.97603
G1 X89.56 Y110.58 E8.00200
G1 X89.16 Y110.41 E8.01056
G1 X87.98 Y109.81 E8.03649
G1 X87.62 Y109.59 E8.04479
G1 X86.51 Y108.88 E8.07065
G1 X86.15 Y108.62 E8.07931
G1 X85.12 Y107.78 E8.10536
G1 X84.80 Y107.49 E8.11385
G1 X83.86 Y106.55 E8.13983
G1 X83.57 Y106.23 E8.14818
G1 X82.74 Y105.21 E8.17401
G1 X82.49 Y104.87 E8.18231
G1 X81.77 Y103.76 E8.20824
G1 X81.55 Y103.37 E8.21701
G1 X80.94 Y102.18 E8.24315
G1 X80.77 Y101.80 E8.25147
G1 X80.18 Y100.25 E8.28382
G1 X80.07 Y99.79 E8.29311
G1 X79.82 Y98.89 E8.31138
G1 X79.73 Y98.46 E8.32001
G1 X79.52 Y97.15 E8.34603
G1 X79.48 Y96.72 E8.35452
G1 X79.41 Y95.51 E8.37834
G1 X79.41 Y95.29 E8.38263
G1 X79.41 Y95.06 E8.38716
G1 X79.41 Y94.84 E8.39147
G1 X79.48 Y93.63 E8.41511
G1 X79.52 Y93.21 E8.42347
G1 X79.73 Y91.90 E8.44939
G1 X79.82 Y91.47 E8.45793
G1 X80.16 Y90.20 E8.48379
G1 X80.29 Y89.80 E8.49205
G1 X80.76 Y88.56 E8.51812
G1 X80.94 Y88.15 E8.52679
G1 X81.55 Y86.97 E8.55279
G1 X81.76 Y86.60 E8.56108
G1 X82.47 Y85.50 E8.58694
G1 X82.73 Y85.14 E8.59560
G1 X83.57 Y84.11 E8.62159
G1 X83.86 Y83.79 E8.62994
G0 F1980 X84.22 Y84.13
G1 F1140 X85.14 Y83.21 E8.65548
G1 X85.44 Y82.94 E8.66355
G1 X86.45 Y82.12 E8.68893
G1 X86.77 Y81.89 E8.69666
G1 X87.85 Y81.18 E8.72200
G1 X88.22 Y80.97 E8.73021
G1 X89.38 Y80.38 E8.75582
G1 X89.75 Y80.22 E8.76365
G1 X90.95 Y79.76 E8.78889
G1 X91.33 Y79.63 E8.79682
G1 X92.59 Y79.29 E8.82226
G1 X92.99 Y79.21 E8.83027
G1 X94.27 Y79.00 E8.85571
G1 X94.67 Y78.96 E8.86357
G1 X95.97 Y78.89 E8.88904
G1 X96.38 Y78.89 E8.89721
G1 X97.69 Y78.96 E8.92282
G1 X98.09 Y79.00 E8.93070
G1 X99.37 Y79.21 E8.95610
G1 X99.77 Y79.29 E8.96403
G1 X101.02 Y79.63 E8.98943
G1 X101.40 Y79.75 E8.99732
G1 X102.61 Y80.22 E9.02277
G1 X102.99 Y80.38 E9.03081
G1 X104.14 Y80.97 E9.05624
G1 X104.49 Y81.17 E9.06404
G1 X105.58 Y81.87 E9.08938
G1 X105.91 Y82.12 E9.09753
G1 X106.92 Y82.94 E9.12305
G1 X107.22 Y83.21 E9.13100
G1 X108.14 Y84.13 E9.15648
G1 X108.41 Y84.43 E9.16432
G1 X109.22 Y85.43 E9.18963
G1 X109.46 Y85.75 E9.19747
G1 X110.17 Y86.84 E9.22288
G1 X110.38 Y87.20 E9.23110
G1 X110.97 Y88.37 E9.25671
G1 X111.13 Y88.73 E9.26454
G1 X111.60 Y89.94 E9.28977
G1 X111.72 Y90.32 E9.29770
G1 X112.06 Y91.58 E9.32315
G1 X112.14 Y91.97 E9.33116
G1 X112.35 Y93.26 E9.35660
G1 X112.39 Y93.66 E9.36446
G1 X112.46 Y94.95 E9.38993
G1 X112.46 Y95.37 E9.39810
G1 X112.39 Y96.68 E9.42371
G1 X112.35 Y97.08 E9.43159
G1 X112.14 Y98.36 E9.45699
G1 X112.06 Y98.75 E9.46492
G1 X111.72 Y100.00 E9.49032
G1 X111.60 Y100.39 E9.49821
G1 X111.14 Y101.60 E9.52366
G1 X110.97 Y101.97 E9.53170
G1 X110.38 Y103.13 E9.55713
G1 X110.18 Y103.48 E9.56493
G1 X109.48 Y104.56 E9.59027
G1 X109.23 Y104.90 E9.59842
G1 X108.42 Y105.91 E9.62388
G1 X108.15 Y106.20 E9.63172
G1 X107.23 Y107.13 E9.65726
G1 X106.92 Y107.40 E9.66533
G1 X105.91 Y108.22 E9.69070
G1 X105.59 Y108.45 E9.69843
G1 X104.51 Y109.16 E9.72377
G1 X104.15 Y109.37 E9.73199
G1 X102.98 Y109.96 E9.75760
G1 X102.62 Y110.12 E9.76543
G1 X101.42 Y110.58 E9.79066
G1 X101.03 Y110.71 E9.79859
G1 X99.78 Y111.05 E9.82404
G1 X99.38 Y111.13 E9.83205
G1 X98.09 Y111.33 E9.85749
G1 X97.70 Y111.38 E9.86535
G1 X96.40 Y111.45 E9.89082
