; generated by Slic3r 0.9.9 on 2013-08-18 at 20:29:13

; layer_height = 0.25
; perimeters = 2
; top_solid_layers = 2
; bottom_solid_layers = 2
; fill_density = 0.4
; perimeter_speed = 25
; infill_speed = 50
; travel_speed = 50
; nozzle_diameter = 0.4
; filament_diameter = 2.8
; extrusion_multiplier = 1
; perimeters extrusion width = 0.53mm
; infill extrusion width = 0.53mm
; solid infill extrusion width = 0.53mm
; top infill extrusion width = 0.53mm
; first layer extrusion width = 0.50mm

G21 ; set units to millimeters
M107 ; disable fan
M190 S60 ; wait for bed temperature to be reached
M104 S200 ; set temperature
G28 X0 Y0 ; Home X and Y
G0 Z10 ; Move Z up 10
G28 Z0 ; Home Z
M109 S200 ; wait for temperature to be reached
G90 ; use absolute coordinates
G92 E0 ; reset extrusion distance
M82 ; use absolute distances for extrusion
G1 F1800.000 E-1.80000 ; retract
G92 E0 ; reset extrusion distance
G1 Z0.250 F3000.000 ; move to next layer (0)
G1 X64.680 Y79.740 ; move to first skirt point
G1 F1800.000 E1.80000 ; compensate retraction
G1 X65.810 Y78.820 F1050.000 E1.82831 ; skirt
G1 X67.090 Y78.130 E1.85656 ; skirt
G1 X68.490 Y77.710 E1.88496 ; skirt
G1 X69.940 Y77.560 E1.91328 ; skirt
G1 X133.000 Y77.560 E3.13848 ; skirt
G1 X134.450 Y77.710 E3.16680 ; skirt
G1 X135.850 Y78.130 E3.19520 ; skirt
G1 X137.130 Y78.820 E3.22346 ; skirt
G1 X138.260 Y79.740 E3.25177 ; skirt
G1 X139.180 Y80.870 E3.28008 ; skirt
G1 X139.870 Y82.150 E3.30833 ; skirt
G1 X140.290 Y83.550 E3.33673 ; skirt
G1 X140.440 Y85.000 E3.36505 ; skirt
G1 X140.440 Y115.000 E3.94792 ; skirt
G1 X140.290 Y116.450 E3.97625 ; skirt
G1 X139.870 Y117.850 E4.00464 ; skirt
G1 X139.180 Y119.130 E4.03290 ; skirt
G1 X138.260 Y120.260 E4.06121 ; skirt
G1 X137.130 Y121.180 E4.08952 ; skirt
G1 X135.850 Y121.870 E4.11777 ; skirt
G1 X134.450 Y122.290 E4.14617 ; skirt
G1 X133.000 Y122.440 E4.17449 ; skirt
G1 X69.940 Y122.440 E5.39969 ; skirt
G1 X68.490 Y122.290 E5.42801 ; skirt
G1 X67.090 Y121.870 E5.45641 ; skirt
G1 X65.810 Y121.180 E5.48466 ; skirt
G1 X64.680 Y120.260 E5.51297 ; skirt
G1 X63.760 Y119.130 E5.54129 ; skirt
G1 X63.070 Y117.850 E5.56954 ; skirt
G1 X62.650 Y116.450 E5.59794 ; skirt
G1 X62.500 Y115.000 E5.62626 ; skirt
G1 X62.500 Y85.000 E6.20913 ; skirt
G1 X62.650 Y83.550 E6.23745 ; skirt
G1 X63.070 Y82.150 E6.26585 ; skirt
G1 X63.760 Y80.870 E6.29410 ; skirt
G1 X64.635 Y79.796 E6.32102 ; skirt
G1 X65.020 Y80.080 F3000.000 ; move to first skirt point
G1 X66.070 Y79.220 F1050.000 E6.34739 ; skirt
G1 X67.280 Y78.570 E6.37408 ; skirt
G1 X68.580 Y78.180 E6.40045 ; skirt
G1 X69.940 Y78.040 E6.42701 ; skirt
G1 X133.000 Y78.040 E7.65221 ; skirt
G1 X134.360 Y78.180 E7.67877 ; skirt
G1 X135.660 Y78.570 E7.70514 ; skirt
G1 X136.870 Y79.220 E7.73183 ; skirt
G1 X137.920 Y80.080 E7.75820 ; skirt
G1 X138.780 Y81.130 E7.78457 ; skirt
G1 X139.430 Y82.340 E7.81125 ; skirt
G1 X139.820 Y83.640 E7.83762 ; skirt
G1 X139.960 Y85.000 E7.86419 ; skirt
G1 X139.960 Y115.000 E8.44706 ; skirt
G1 X139.820 Y116.360 E8.47362 ; skirt
G1 X139.430 Y117.660 E8.49999 ; skirt
G1 X138.780 Y118.870 E8.52668 ; skirt
G1 X137.920 Y119.920 E8.55305 ; skirt
G1 X136.870 Y120.780 E8.57942 ; skirt
G1 X135.660 Y121.430 E8.60611 ; skirt
G1 X134.360 Y121.820 E8.63248 ; skirt
G1 X133.000 Y121.960 E8.65904 ; skirt
G1 X69.940 Y121.960 E9.88424 ; skirt
G1 X68.580 Y121.820 E9.91080 ; skirt
G1 X67.280 Y121.430 E9.93717 ; skirt
G1 X66.070 Y120.780 E9.96386 ; skirt
G1 X65.020 Y119.920 E9.99023 ; skirt
G1 X64.160 Y118.870 E10.01660 ; skirt
G1 X63.510 Y117.660 E10.04328 ; skirt
G1 X63.120 Y116.360 E10.06965 ; skirt
G1 X62.980 Y115.000 E10.09622 ; skirt
G1 X62.980 Y85.000 E10.67909 ; skirt
G1 X63.120 Y83.640 E10.70565 ; skirt
G1 X63.510 Y82.340 E10.73202 ; skirt
G1 X64.160 Y81.130 E10.75871 ; skirt
G1 X64.975 Y80.136 E10.78368 ; skirt
G1 X65.360 Y80.420 F3000.000 ; move to first skirt point
G1 X66.340 Y79.610 F1050.000 E10.80838 ; skirt
G1 X67.460 Y79.010 E10.83307 ; skirt
G1 X68.680 Y78.650 E10.85778 ; skirt
G1 X69.940 Y78.520 E10.88240 ; skirt
G1 X133.000 Y78.520 E12.10759 ; skirt
G1 X134.260 Y78.650 E12.13220 ; skirt
G1 X135.480 Y79.010 E12.15692 ; skirt
G1 X136.600 Y79.610 E12.18160 ; skirt
G1 X137.580 Y80.420 E12.20631 ; skirt
G1 X138.390 Y81.400 E12.23101 ; skirt
G1 X138.990 Y82.520 E12.25570 ; skirt
G1 X139.350 Y83.740 E12.28041 ; skirt
G1 X139.480 Y85.000 E12.30502 ; skirt
G1 X139.480 Y115.000 E12.88789 ; skirt
G1 X139.350 Y116.260 E12.91250 ; skirt
G1 X138.990 Y117.480 E12.93722 ; skirt
G1 X138.390 Y118.600 E12.96190 ; skirt
G1 X137.580 Y119.580 E12.98661 ; skirt
G1 X136.600 Y120.390 E13.01131 ; skirt
G1 X135.480 Y120.990 E13.03599 ; skirt
G1 X134.260 Y121.350 E13.06071 ; skirt
G1 X133.000 Y121.480 E13.08532 ; skirt
G1 X69.940 Y121.480 E14.31052 ; skirt
G1 X68.680 Y121.350 E14.33513 ; skirt
G1 X67.460 Y120.990 E14.35984 ; skirt
G1 X66.340 Y120.390 E14.38453 ; skirt
G1 X65.360 Y119.580 E14.40923 ; skirt
G1 X64.550 Y118.600 E14.43393 ; skirt
G1 X63.950 Y117.480 E14.45862 ; skirt
G1 X63.590 Y116.260 E14.48333 ; skirt
G1 X63.460 Y115.000 E14.50794 ; skirt
G1 X63.460 Y85.000 E15.09082 ; skirt
G1 X63.590 Y83.740 E15.11543 ; skirt
G1 X63.950 Y82.520 E15.14014 ; skirt
G1 X64.550 Y81.400 E15.16483 ; skirt
G1 X65.314 Y80.475 E15.18813 ; skirt
G1 F1800.000 E13.38813 ; retract
G92 E0 ; reset extrusion distance
G1 X125.356 Y99.348 F3000.000 ; move to first perimeter point
G1 F1800.000 E1.80000 ; compensate retraction
G1 X125.589 Y98.734 F630.000 E1.81275 ; perimeter
G1 X125.962 Y98.194 E1.82551 ; perimeter
G1 X126.453 Y97.759 E1.83826 ; perimeter
G1 X127.034 Y97.454 E1.85102 ; perimeter
G1 X127.672 Y97.297 E1.86377 ; perimeter
G1 X128.328 Y97.297 E1.87653 ; perimeter
G1 X128.966 Y97.454 E1.88928 ; perimeter
G1 X129.547 Y97.759 E1.90203 ; perimeter
G1 X130.038 Y98.194 E1.91479 ; perimeter
G1 X130.411 Y98.734 E1.92754 ; perimeter
G1 X130.644 Y99.348 E1.94030 ; perimeter
G1 X130.723 Y100.000 E1.95305 ; perimeter
G1 X130.644 Y100.652 E1.96581 ; perimeter
G1 X130.411 Y101.265 E1.97856 ; perimeter
G1 X130.038 Y101.806 E1.99132 ; perimeter
G1 X129.547 Y102.241 E2.00407 ; perimeter
G1 X128.966 Y102.546 E2.01683 ; perimeter
G1 X128.328 Y102.703 E2.02958 ; perimeter
G1 X127.672 Y102.703 E2.04233 ; perimeter
G1 X127.034 Y102.546 E2.05509 ; perimeter
G1 X126.453 Y102.241 E2.06784 ; perimeter
G1 X125.962 Y101.806 E2.08060 ; perimeter
G1 X125.589 Y101.266 E2.09335 ; perimeter
G1 X125.356 Y100.652 E2.10611 ; perimeter
G1 X125.277 Y100.000 E2.11886 ; perimeter
G1 X125.347 Y99.420 E2.13022 ; perimeter
G1 X125.824 Y99.464 F3000.000 ; move to first perimeter point
G1 X126.016 Y98.959 F630.000 E2.14072 ; perimeter
G1 X126.323 Y98.514 E2.15121 ; perimeter
G1 X126.727 Y98.156 E2.16171 ; perimeter
G1 X127.205 Y97.905 E2.17221 ; perimeter
G1 X127.730 Y97.775 E2.18270 ; perimeter
G1 X128.270 Y97.775 E2.19320 ; perimeter
G1 X128.795 Y97.905 E2.20370 ; perimeter
G1 X129.273 Y98.156 E2.21419 ; perimeter
G1 X129.677 Y98.514 E2.22469 ; perimeter
G1 X129.984 Y98.959 E2.23519 ; perimeter
G1 X130.176 Y99.464 E2.24568 ; perimeter
G1 X130.241 Y100.000 E2.25618 ; perimeter
G1 X130.176 Y100.536 E2.26668 ; perimeter
G1 X129.984 Y101.041 E2.27717 ; perimeter
G1 X129.677 Y101.486 E2.28767 ; perimeter
G1 X129.273 Y101.844 E2.29817 ; perimeter
G1 X128.795 Y102.095 E2.30866 ; perimeter
G1 X128.270 Y102.225 E2.31916 ; perimeter
G1 X127.730 Y102.225 E2.32966 ; perimeter
G1 X127.205 Y102.095 E2.34015 ; perimeter
G1 X126.727 Y101.844 E2.35065 ; perimeter
G1 X126.323 Y101.486 E2.36114 ; perimeter
G1 X126.016 Y101.041 E2.37164 ; perimeter
G1 X125.824 Y100.536 E2.38214 ; perimeter
G1 X125.759 Y100.000 E2.39263 ; perimeter
G1 X125.815 Y99.535 E2.40174 ; perimeter
G1 X125.493 Y99.119 F3000.000 ; move inwards before travel
G1 F1800.000 E0.60174 ; retract
G92 E0 ; reset extrusion distance
G1 X80.723 Y100.000 F3000.000 ; move to first perimeter point
G1 F1800.000 E1.80000 ; compensate retraction
G1 X80.644 Y100.652 F630.000 E1.81275 ; perimeter
G1 X80.411 Y101.266 E1.82551 ; perimeter
G1 X80.038 Y101.806 E1.83826 ; perimeter
G1 X79.547 Y102.241 E1.85102 ; perimeter
G1 X78.966 Y102.546 E1.86377 ; perimeter
G1 X78.328 Y102.703 E1.87653 ; perimeter
G1 X77.672 Y102.703 E1.88928 ; perimeter
G1 X77.034 Y102.546 E1.90204 ; perimeter
G1 X76.453 Y102.241 E1.91479 ; perimeter
G1 X75.962 Y101.806 E1.92754 ; perimeter
G1 X75.589 Y101.266 E1.94030 ; perimeter
G1 X75.356 Y100.652 E1.95305 ; perimeter
G1 X75.277 Y100.000 E1.96581 ; perimeter
G1 X75.356 Y99.348 E1.97856 ; perimeter
G1 X75.589 Y98.734 E1.99132 ; perimeter
G1 X75.962 Y98.194 E2.00407 ; perimeter
G1 X76.453 Y97.759 E2.01683 ; perimeter
G1 X77.034 Y97.454 E2.02958 ; perimeter
G1 X77.672 Y97.297 E2.04233 ; perimeter
G1 X78.328 Y97.297 E2.05509 ; perimeter
G1 X78.966 Y97.454 E2.06784 ; perimeter
G1 X79.547 Y97.759 E2.08060 ; perimeter
G1 X80.038 Y98.194 E2.09335 ; perimeter
G1 X80.411 Y98.734 E2.10611 ; perimeter
G1 X80.644 Y99.348 E2.11886 ; perimeter
G1 X80.714 Y99.929 E2.13022 ; perimeter
G1 X80.241 Y100.000 F3000.000 ; move to first perimeter point
G1 X80.176 Y100.536 F630.000 E2.14072 ; perimeter
G1 X79.984 Y101.041 E2.15121 ; perimeter
G1 X79.677 Y101.486 E2.16171 ; perimeter
G1 X79.273 Y101.844 E2.17221 ; perimeter
G1 X78.795 Y102.095 E2.18270 ; perimeter
G1 X78.270 Y102.225 E2.19320 ; perimeter
G1 X77.730 Y102.225 E2.20370 ; perimeter
G1 X77.205 Y102.095 E2.21419 ; perimeter
G1 X76.727 Y101.844 E2.22469 ; perimeter
G1 X76.323 Y101.486 E2.23519 ; perimeter
G1 X76.016 Y101.041 E2.24568 ; perimeter
G1 X75.824 Y100.536 E2.25618 ; perimeter
G1 X75.759 Y100.000 E2.26668 ; perimeter
G1 X75.824 Y99.464 E2.27717 ; perimeter
G1 X76.016 Y98.959 E2.28767 ; perimeter
G1 X76.323 Y98.514 E2.29817 ; perimeter
G1 X76.727 Y98.156 E2.30866 ; perimeter
G1 X77.205 Y97.905 E2.31916 ; perimeter
G1 X77.730 Y97.775 E2.32966 ; perimeter
G1 X78.270 Y97.775 E2.34015 ; perimeter
G1 X78.795 Y97.905 E2.35065 ; perimeter
G1 X79.273 Y98.156 E2.36114 ; perimeter
G1 X79.677 Y98.514 E2.37164 ; perimeter
G1 X79.984 Y98.959 E2.38214 ; perimeter
G1 X80.176 Y99.464 E2.39264 ; perimeter
G1 X80.232 Y99.929 E2.40174 ; perimeter
G1 X80.645 Y100.256 F3000.000 ; move inwards before travel
G1 X78.761 Y105.261 ; move to first perimeter point
G1 X78.761 Y109.739 F735.000 E2.48875 ; perimeter
G1 X94.761 Y109.739 E2.79962 ; perimeter
G1 X94.761 Y114.761 E2.89718 ; perimeter
G1 X70.185 Y114.761 E3.37466 ; perimeter
G1 X70.185 Y109.739 E3.47222 ; perimeter
G1 X77.239 Y109.739 E3.60927 ; perimeter
G1 X77.239 Y105.261 E3.69628 ; perimeter
G1 X70.185 Y105.261 E3.83333 ; perimeter
G1 X70.185 Y94.739 E4.03776 ; perimeter
G1 X77.239 Y94.739 E4.17481 ; perimeter
G1 X77.239 Y90.261 E4.26182 ; perimeter
G1 X70.185 Y90.261 E4.39887 ; perimeter
G1 X70.185 Y85.239 E4.49643 ; perimeter
G1 X132.761 Y85.239 E5.71221 ; perimeter
G1 X132.761 Y114.761 E6.28579 ; perimeter
G1 X111.239 Y114.761 E6.70393 ; perimeter
G1 X111.239 Y109.739 E6.80149 ; perimeter
G1 X127.239 Y109.739 E7.11236 ; perimeter
G1 X127.239 Y105.261 E7.19937 ; perimeter
G1 X111.239 Y105.261 E7.51024 ; perimeter
G1 X111.239 Y99.987 E7.61269 ; perimeter
G1 X111.061 Y98.287 E7.64592 ; perimeter
G1 X110.528 Y96.648 E7.67939 ; perimeter
G1 X109.667 Y95.156 E7.71286 ; perimeter
G1 X109.291 Y94.739 E7.72377 ; perimeter
G1 X127.239 Y94.739 E8.07248 ; perimeter
G1 X127.239 Y90.261 E8.15949 ; perimeter
G1 X108.761 Y90.261 E8.51851 ; perimeter
G1 X108.761 Y94.150 E8.59408 ; perimeter
G1 X108.514 Y93.876 E8.60124 ; perimeter
G1 X107.120 Y92.863 E8.63471 ; perimeter
G1 X105.546 Y92.163 E8.66818 ; perimeter
G1 X103.861 Y91.805 E8.70166 ; perimeter
G1 X102.139 Y91.805 E8.73513 ; perimeter
G1 X100.454 Y92.163 E8.76860 ; perimeter
G1 X98.880 Y92.863 E8.80207 ; perimeter
G1 X97.486 Y93.876 E8.83554 ; perimeter
G1 X97.239 Y94.150 E8.84271 ; perimeter
G1 X97.239 Y90.261 E8.91827 ; perimeter
G1 X78.761 Y90.261 E9.27729 ; perimeter
G1 X78.761 Y94.739 E9.36431 ; perimeter
G1 X96.709 Y94.739 E9.71302 ; perimeter
G1 X96.333 Y95.156 E9.72392 ; perimeter
G1 X95.472 Y96.648 E9.75739 ; perimeter
G1 X94.939 Y98.287 E9.79086 ; perimeter
G1 X94.761 Y99.987 E9.82409 ; perimeter
G1 X94.761 Y105.261 E9.92655 ; perimeter
G1 X78.833 Y105.261 E10.23602 ; perimeter
G1 X78.282 Y105.261 F3000.000 ; move inwards before travel
G1 F1800.000 E8.43602 ; retract
G92 E0 ; reset extrusion distance
G1 X70.664 Y114.282 F3000.000 ; move to first perimeter point
G1 F1800.000 E1.80000 ; compensate retraction
G1 X70.664 Y110.218 F1050.000 E1.87897 ; perimeter
G1 X77.718 Y110.218 E2.01602 ; perimeter
G1 X77.718 Y104.782 E2.12163 ; perimeter
G1 X70.664 Y104.782 E2.25868 ; perimeter
G1 X70.664 Y95.218 E2.44450 ; perimeter
G1 X77.718 Y95.218 E2.58156 ; perimeter
G1 X77.718 Y89.782 E2.68716 ; perimeter
G1 X70.664 Y89.782 E2.82422 ; perimeter
G1 X70.664 Y85.718 E2.90318 ; perimeter
G1 X132.282 Y85.718 E4.10037 ; perimeter
G1 X132.282 Y114.282 E4.65535 ; perimeter
G1 X111.718 Y114.282 E5.05490 ; perimeter
G1 X111.718 Y110.218 E5.13386 ; perimeter
G1 X127.718 Y110.218 E5.44473 ; perimeter
G1 X127.718 Y104.782 E5.55034 ; perimeter
G1 X111.718 Y104.782 E5.86120 ; perimeter
G1 X111.718 Y99.962 E5.95485 ; perimeter
G1 X111.531 Y98.187 E5.98954 ; perimeter
G1 X110.968 Y96.453 E6.02496 ; perimeter
G1 X110.255 Y95.218 E6.05266 ; perimeter
G1 X127.718 Y95.218 E6.39195 ; perimeter
G1 X127.718 Y89.782 E6.49756 ; perimeter
G1 X108.282 Y89.782 E6.87518 ; perimeter
G1 X108.282 Y93.116 E6.93995 ; perimeter
G1 X107.361 Y92.447 E6.96208 ; perimeter
G1 X105.695 Y91.705 E6.99751 ; perimeter
G1 X103.912 Y91.326 E7.03293 ; perimeter
G1 X102.088 Y91.326 E7.06836 ; perimeter
G1 X100.305 Y91.705 E7.10378 ; perimeter
G1 X98.639 Y92.447 E7.13921 ; perimeter
G1 X97.718 Y93.116 E7.16133 ; perimeter
G1 X97.718 Y89.782 E7.22611 ; perimeter
G1 X78.282 Y89.782 E7.60373 ; perimeter
G1 X78.282 Y95.218 E7.70933 ; perimeter
G1 X95.745 Y95.218 E8.04862 ; perimeter
G1 X95.032 Y96.453 E8.07632 ; perimeter
G1 X94.469 Y98.187 E8.11175 ; perimeter
G1 X94.282 Y99.962 E8.14644 ; perimeter
G1 X94.282 Y104.782 E8.24009 ; perimeter
G1 X78.282 Y104.782 E8.55095 ; perimeter
G1 X78.282 Y110.218 E8.65656 ; perimeter
G1 X94.282 Y110.218 E8.96743 ; perimeter
G1 X94.282 Y114.282 E9.04639 ; perimeter
G1 X70.736 Y114.282 E9.50388 ; perimeter
G1 F1800.000 E7.70388 ; retract
G92 E0 ; reset extrusion distance
G1 X96.939 Y106.061 F3000.000 ; move to first perimeter point
G1 F1800.000 E1.80000 ; compensate retraction
G1 X96.939 Y100.013 F735.000 E1.91751 ; perimeter
G1 X97.073 Y98.740 E1.94237 ; perimeter
G1 X97.464 Y97.535 E1.96698 ; perimeter
G1 X98.098 Y96.438 E1.99159 ; perimeter
G1 X98.945 Y95.497 E2.01620 ; perimeter
G1 X99.970 Y94.752 E2.04082 ; perimeter
G1 X101.128 Y94.237 E2.06543 ; perimeter
G1 X102.367 Y93.974 E2.09004 ; perimeter
G1 X103.633 Y93.974 E2.11465 ; perimeter
G1 X104.872 Y94.237 E2.13926 ; perimeter
G1 X106.030 Y94.752 E2.16388 ; perimeter
G1 X107.055 Y95.497 E2.18849 ; perimeter
G1 X107.902 Y96.438 E2.21310 ; perimeter
G1 X108.536 Y97.535 E2.23771 ; perimeter
G1 X108.927 Y98.740 E2.26232 ; perimeter
G1 X109.061 Y100.013 E2.28718 ; perimeter
G1 X109.061 Y106.061 E2.40469 ; perimeter
G1 X97.011 Y106.061 E2.63881 ; perimeter
G1 X97.179 Y105.646 F3000.000 ; move inwards before travel
G1 X97.418 Y105.582 ; move to first perimeter point
G1 X97.418 Y100.038 F630.000 E2.74653 ; perimeter
G1 X97.544 Y98.840 E2.76992 ; perimeter
G1 X97.904 Y97.731 E2.79258 ; perimeter
G1 X98.487 Y96.721 E2.81524 ; perimeter
G1 X99.267 Y95.855 E2.83790 ; perimeter
G1 X100.211 Y95.169 E2.86055 ; perimeter
G1 X101.276 Y94.695 E2.88321 ; perimeter
G1 X102.417 Y94.452 E2.90587 ; perimeter
G1 X103.583 Y94.452 E2.92853 ; perimeter
G1 X104.724 Y94.695 E2.95119 ; perimeter
G1 X105.789 Y95.169 E2.97384 ; perimeter
G1 X106.733 Y95.855 E2.99650 ; perimeter
G1 X107.513 Y96.721 E3.01916 ; perimeter
G1 X108.096 Y97.731 E3.04182 ; perimeter
G1 X108.456 Y98.840 E3.06447 ; perimeter
G1 X108.582 Y100.038 E3.08787 ; perimeter
G1 X108.582 Y105.582 E3.19559 ; perimeter
G1 X97.490 Y105.582 E3.41111 ; perimeter
G1 F1800.000 E1.61111 ; retract
