; generated by Slic3r 0.9.9 on 2013-08-19 at 17:51:23

; layer_height = 0.25
; perimeters = 2
; top_solid_layers = 2
; bottom_solid_layers = 2
; fill_density = 0.4
; perimeter_speed = 25
; infill_speed = 50
; travel_speed = 50
; nozzle_diameter = 0.4
; filament_diameter = 2.8
; extrusion_multiplier = 1
; perimeters extrusion width = 0.53mm
; infill extrusion width = 0.53mm
; solid infill extrusion width = 0.53mm
; top infill extrusion width = 0.53mm
; first layer extrusion width = 0.50mm

G21 ; set units to millimeters
M107 ; disable fan
M190 S60 ; wait for bed temperature to be reached
M104 S200 ; set temperature
G28 X0 Y0 ; Home X and Y
G0 Z10 ; Move Z up 10
G28 Z0 ; Home Z
M109 S200 ; wait for temperature to be reached
G90 ; use absolute coordinates
G92 E0 ; reset extrusion distance
M82 ; use absolute distances for extrusion
G1 F1800.000 E-1.80000 ; retract
G92 E0 ; reset extrusion distance
G1 Z0.250 F3000.000 ; move to next layer (0)
G1 X67.440 Y85.120 ; move to first skirt point
G1 F1800.000 E1.80000 ; compensate retraction
G1 X67.950 Y84.750 F1050.000 E1.81224 ; skirt
G1 X68.700 Y84.280 E1.82944 ; skirt
G1 X69.220 Y83.990 E1.84101 ; skirt
G1 X70.120 Y83.560 E1.86039 ; skirt
G1 X70.730 Y83.320 E1.87312 ; skirt
G1 X71.560 Y83.050 E1.89008 ; skirt
G1 X72.170 Y82.890 E1.90233 ; skirt
G1 X73.110 Y82.710 E1.92093 ; skirt
G1 X73.730 Y82.630 E1.93307 ; skirt
G1 X74.680 Y82.560 E1.95158 ; skirt
G1 X125.310 Y82.560 E2.93528 ; skirt
G1 X126.260 Y82.630 E2.95378 ; skirt
G1 X126.880 Y82.710 E2.96593 ; skirt
G1 X127.820 Y82.890 E2.98452 ; skirt
G1 X128.430 Y83.050 E2.99678 ; skirt
G1 X129.280 Y83.330 E3.01416 ; skirt
G1 X129.860 Y83.560 E3.02629 ; skirt
G1 X130.680 Y83.940 E3.04385 ; skirt
G1 X131.230 Y84.240 E3.05602 ; skirt
G1 X132.040 Y84.750 E3.07462 ; skirt
G1 X132.550 Y85.120 E3.08686 ; skirt
G1 X133.260 Y85.710 E3.10479 ; skirt
G1 X133.720 Y86.140 E3.11703 ; skirt
G1 X134.400 Y86.870 E3.13641 ; skirt
G1 X134.800 Y87.360 E3.14870 ; skirt
G1 X135.300 Y88.050 E3.16526 ; skirt
G1 X135.640 Y88.580 E3.17749 ; skirt
G1 X136.120 Y89.460 E3.19697 ; skirt
G1 X136.380 Y90.020 E3.20896 ; skirt
G1 X136.690 Y90.800 E3.22527 ; skirt
G1 X136.890 Y91.400 E3.23756 ; skirt
G1 X137.140 Y92.340 E3.25646 ; skirt
G1 X137.260 Y92.960 E3.26873 ; skirt
G1 X137.380 Y93.890 E3.28694 ; skirt
G1 X137.440 Y94.990 E3.30835 ; skirt
G1 X137.440 Y104.990 E3.50264 ; skirt
G1 X137.380 Y106.090 E3.52404 ; skirt
G1 X137.260 Y107.030 E3.54245 ; skirt
G1 X137.140 Y107.650 E3.55472 ; skirt
G1 X136.890 Y108.590 E3.57362 ; skirt
G1 X136.690 Y109.190 E3.58591 ; skirt
G1 X136.380 Y109.970 E3.60222 ; skirt
G1 X136.120 Y110.530 E3.61421 ; skirt
G1 X135.640 Y111.410 E3.63369 ; skirt
G1 X135.300 Y111.940 E3.64592 ; skirt
G1 X134.800 Y112.630 E3.66248 ; skirt
G1 X134.400 Y113.120 E3.67477 ; skirt
G1 X133.720 Y113.850 E3.69415 ; skirt
G1 X133.260 Y114.280 E3.70639 ; skirt
G1 X132.550 Y114.870 E3.72432 ; skirt
G1 X132.040 Y115.240 E3.73656 ; skirt
G1 X131.230 Y115.750 E3.75516 ; skirt
G1 X130.680 Y116.050 E3.76733 ; skirt
G1 X129.860 Y116.430 E3.78489 ; skirt
G1 X129.280 Y116.660 E3.79702 ; skirt
G1 X128.430 Y116.940 E3.81440 ; skirt
G1 X127.820 Y117.100 E3.82666 ; skirt
G1 X126.880 Y117.280 E3.84525 ; skirt
G1 X126.260 Y117.360 E3.85740 ; skirt
G1 X125.550 Y117.420 E3.87124 ; skirt
G1 X125.000 Y117.440 E3.88193 ; skirt
G1 X75.000 Y117.440 E4.85339 ; skirt
G1 X74.450 Y117.420 E4.86408 ; skirt
G1 X73.730 Y117.360 E4.87812 ; skirt
G1 X73.110 Y117.280 E4.89026 ; skirt
G1 X72.170 Y117.100 E4.90886 ; skirt
G1 X71.560 Y116.940 E4.92111 ; skirt
G1 X70.710 Y116.660 E4.93850 ; skirt
G1 X70.130 Y116.430 E4.95062 ; skirt
G1 X69.310 Y116.050 E4.96818 ; skirt
G1 X68.760 Y115.750 E4.98035 ; skirt
G1 X67.950 Y115.240 E4.99895 ; skirt
G1 X67.440 Y114.870 E5.01119 ; skirt
G1 X66.730 Y114.280 E5.02913 ; skirt
G1 X66.270 Y113.850 E5.04136 ; skirt
G1 X65.590 Y113.120 E5.06075 ; skirt
G1 X65.190 Y112.630 E5.07304 ; skirt
G1 X64.690 Y111.940 E5.08959 ; skirt
G1 X64.350 Y111.410 E5.10183 ; skirt
G1 X63.870 Y110.530 E5.12130 ; skirt
G1 X63.610 Y109.970 E5.13330 ; skirt
G1 X63.300 Y109.190 E5.14960 ; skirt
G1 X63.100 Y108.590 E5.16189 ; skirt
G1 X62.850 Y107.650 E5.18079 ; skirt
G1 X62.730 Y107.030 E5.19306 ; skirt
G1 X62.600 Y105.970 E5.21381 ; skirt
G1 X62.560 Y104.990 E5.23287 ; skirt
G1 X62.560 Y94.990 E5.42716 ; skirt
G1 X62.600 Y94.010 E5.44621 ; skirt
G1 X62.730 Y92.960 E5.46677 ; skirt
G1 X62.850 Y92.340 E5.47904 ; skirt
G1 X63.100 Y91.400 E5.49794 ; skirt
G1 X63.300 Y90.800 E5.51023 ; skirt
G1 X63.610 Y90.020 E5.52653 ; skirt
G1 X63.870 Y89.460 E5.53853 ; skirt
G1 X64.350 Y88.580 E5.55800 ; skirt
G1 X64.690 Y88.050 E5.57024 ; skirt
G1 X65.190 Y87.360 E5.58679 ; skirt
G1 X65.590 Y86.870 E5.59908 ; skirt
G1 X66.270 Y86.140 E5.61847 ; skirt
G1 X66.730 Y85.710 E5.63070 ; skirt
G1 X67.385 Y85.166 E5.64724 ; skirt
G1 X67.720 Y85.510 F3000.000 ; move to first skirt point
G1 X68.230 Y85.140 F1050.000 E5.65948 ; skirt
G1 X68.930 Y84.690 E5.67565 ; skirt
G1 X69.450 Y84.400 E5.68722 ; skirt
G1 X70.290 Y84.010 E5.70521 ; skirt
G1 X70.900 Y83.770 E5.71795 ; skirt
G1 X71.680 Y83.510 E5.73392 ; skirt
G1 X72.290 Y83.350 E5.74618 ; skirt
G1 X73.170 Y83.180 E5.76359 ; skirt
G1 X73.790 Y83.100 E5.77574 ; skirt
G1 X74.680 Y83.040 E5.79307 ; skirt
G1 X125.310 Y83.040 E6.77676 ; skirt
G1 X126.200 Y83.100 E6.79409 ; skirt
G1 X126.820 Y83.180 E6.80624 ; skirt
G1 X127.700 Y83.350 E6.82365 ; skirt
G1 X128.310 Y83.510 E6.83591 ; skirt
G1 X129.100 Y83.770 E6.85206 ; skirt
G1 X129.680 Y84.000 E6.86419 ; skirt
G1 X130.450 Y84.360 E6.88070 ; skirt
G1 X131.000 Y84.660 E6.89287 ; skirt
G1 X131.760 Y85.140 E6.91034 ; skirt
G1 X132.270 Y85.510 E6.92258 ; skirt
G1 X132.930 Y86.060 E6.93927 ; skirt
G1 X133.390 Y86.490 E6.95151 ; skirt
G1 X134.030 Y87.170 E6.96965 ; skirt
G1 X134.430 Y87.660 E6.98194 ; skirt
G1 X134.900 Y88.300 E6.99737 ; skirt
G1 X135.240 Y88.830 E7.00960 ; skirt
G1 X135.690 Y89.660 E7.02794 ; skirt
G1 X135.950 Y90.220 E7.03994 ; skirt
G1 X136.240 Y90.950 E7.05520 ; skirt
G1 X136.440 Y91.550 E7.06749 ; skirt
G1 X136.670 Y92.430 E7.08516 ; skirt
G1 X136.790 Y93.050 E7.09743 ; skirt
G1 X136.900 Y93.920 E7.11447 ; skirt
G1 X136.960 Y94.990 E7.13529 ; skirt
G1 X136.960 Y104.990 E7.32958 ; skirt
G1 X136.900 Y106.060 E7.35040 ; skirt
G1 X136.790 Y106.940 E7.36763 ; skirt
G1 X136.670 Y107.560 E7.37990 ; skirt
G1 X136.440 Y108.440 E7.39758 ; skirt
G1 X136.240 Y109.040 E7.40986 ; skirt
G1 X135.950 Y109.770 E7.42513 ; skirt
G1 X135.690 Y110.330 E7.43712 ; skirt
G1 X135.240 Y111.160 E7.45546 ; skirt
G1 X134.900 Y111.690 E7.46770 ; skirt
G1 X134.430 Y112.330 E7.48313 ; skirt
G1 X134.030 Y112.820 E7.49542 ; skirt
G1 X133.390 Y113.500 E7.51356 ; skirt
G1 X132.930 Y113.930 E7.52579 ; skirt
G1 X132.270 Y114.480 E7.54249 ; skirt
G1 X131.760 Y114.850 E7.55473 ; skirt
G1 X131.000 Y115.330 E7.57219 ; skirt
G1 X130.450 Y115.630 E7.58436 ; skirt
G1 X129.680 Y115.990 E7.60088 ; skirt
G1 X129.100 Y116.220 E7.61300 ; skirt
G1 X128.310 Y116.480 E7.62916 ; skirt
G1 X127.700 Y116.640 E7.64141 ; skirt
G1 X126.820 Y116.810 E7.65883 ; skirt
G1 X126.200 Y116.890 E7.67097 ; skirt
G1 X125.000 Y116.960 E7.69433 ; skirt
G1 X75.000 Y116.960 E8.66578 ; skirt
G1 X73.790 Y116.890 E8.68933 ; skirt
G1 X73.170 Y116.810 E8.70148 ; skirt
G1 X72.290 Y116.640 E8.71889 ; skirt
G1 X71.680 Y116.480 E8.73114 ; skirt
G1 X70.890 Y116.220 E8.74730 ; skirt
G1 X70.310 Y115.990 E8.75942 ; skirt
G1 X69.540 Y115.630 E8.77594 ; skirt
G1 X68.990 Y115.330 E8.78811 ; skirt
G1 X68.230 Y114.850 E8.80557 ; skirt
G1 X67.720 Y114.480 E8.81782 ; skirt
G1 X67.060 Y113.930 E8.83451 ; skirt
G1 X66.600 Y113.500 E8.84674 ; skirt
G1 X65.960 Y112.820 E8.86489 ; skirt
G1 X65.560 Y112.330 E8.87718 ; skirt
G1 X65.090 Y111.690 E8.89260 ; skirt
G1 X64.750 Y111.160 E8.90484 ; skirt
G1 X64.300 Y110.330 E8.92318 ; skirt
G1 X64.040 Y109.770 E8.93518 ; skirt
G1 X63.750 Y109.040 E8.95044 ; skirt
G1 X63.550 Y108.440 E8.96273 ; skirt
G1 X63.320 Y107.560 E8.98040 ; skirt
G1 X63.200 Y106.940 E8.99267 ; skirt
G1 X63.080 Y105.950 E9.01204 ; skirt
G1 X63.040 Y104.990 E9.03071 ; skirt
G1 X63.040 Y94.990 E9.22500 ; skirt
G1 X63.080 Y94.030 E9.24367 ; skirt
G1 X63.200 Y93.050 E9.26285 ; skirt
G1 X63.320 Y92.430 E9.27512 ; skirt
G1 X63.550 Y91.550 E9.29279 ; skirt
G1 X63.750 Y90.950 E9.30508 ; skirt
G1 X64.040 Y90.220 E9.32034 ; skirt
G1 X64.300 Y89.660 E9.33234 ; skirt
G1 X64.750 Y88.830 E9.35068 ; skirt
G1 X65.090 Y88.300 E9.36292 ; skirt
G1 X65.560 Y87.660 E9.37834 ; skirt
G1 X65.960 Y87.170 E9.39063 ; skirt
G1 X66.600 Y86.490 E9.40878 ; skirt
G1 X67.060 Y86.060 E9.42101 ; skirt
G1 X67.665 Y85.556 E9.43631 ; skirt
G1 X68.010 Y85.900 F3000.000 ; move to first skirt point
G1 X68.520 Y85.530 F1050.000 E9.44855 ; skirt
G1 X69.160 Y85.110 E9.46342 ; skirt
G1 X69.680 Y84.820 E9.47499 ; skirt
G1 X70.470 Y84.450 E9.49194 ; skirt
G1 X71.080 Y84.210 E9.50468 ; skirt
G1 X71.810 Y83.970 E9.51961 ; skirt
G1 X72.420 Y83.810 E9.53186 ; skirt
G1 X73.230 Y83.650 E9.54790 ; skirt
G1 X73.850 Y83.570 E9.56005 ; skirt
G1 X74.680 Y83.520 E9.57620 ; skirt
G1 X125.310 Y83.520 E10.55990 ; skirt
G1 X126.140 Y83.570 E10.57605 ; skirt
G1 X126.760 Y83.650 E10.58820 ; skirt
G1 X127.570 Y83.810 E10.60424 ; skirt
G1 X128.180 Y83.970 E10.61649 ; skirt
G1 X128.930 Y84.220 E10.63185 ; skirt
G1 X129.510 Y84.450 E10.64397 ; skirt
G1 X130.220 Y84.780 E10.65919 ; skirt
G1 X130.770 Y85.080 E10.67136 ; skirt
G1 X131.470 Y85.530 E10.68753 ; skirt
G1 X131.980 Y85.900 E10.69977 ; skirt
G1 X132.600 Y86.410 E10.71537 ; skirt
G1 X133.060 Y86.840 E10.72760 ; skirt
G1 X133.660 Y87.470 E10.74450 ; skirt
G1 X134.060 Y87.960 E10.75679 ; skirt
G1 X134.490 Y88.560 E10.77114 ; skirt
G1 X134.830 Y89.090 E10.78337 ; skirt
G1 X135.260 Y89.860 E10.80051 ; skirt
G1 X135.520 Y90.420 E10.81250 ; skirt
G1 X135.790 Y91.100 E10.82672 ; skirt
G1 X135.990 Y91.700 E10.83900 ; skirt
G1 X136.200 Y92.520 E10.85545 ; skirt
G1 X136.320 Y93.140 E10.86772 ; skirt
G1 X136.430 Y93.950 E10.88360 ; skirt
G1 X136.470 Y94.570 E10.89567 ; skirt
G1 X136.480 Y104.990 E11.09812 ; skirt
G1 X136.430 Y106.030 E11.11835 ; skirt
G1 X136.320 Y106.850 E11.13443 ; skirt
G1 X136.200 Y107.470 E11.14670 ; skirt
G1 X135.990 Y108.290 E11.16314 ; skirt
G1 X135.790 Y108.890 E11.17543 ; skirt
G1 X135.520 Y109.570 E11.18965 ; skirt
G1 X135.260 Y110.130 E11.20164 ; skirt
G1 X134.830 Y110.900 E11.21878 ; skirt
G1 X134.490 Y111.430 E11.23101 ; skirt
G1 X134.060 Y112.030 E11.24535 ; skirt
G1 X133.660 Y112.520 E11.25764 ; skirt
G1 X133.060 Y113.150 E11.27455 ; skirt
G1 X132.600 Y113.580 E11.28678 ; skirt
G1 X131.980 Y114.090 E11.30238 ; skirt
G1 X131.470 Y114.460 E11.31462 ; skirt
G1 X130.770 Y114.910 E11.33079 ; skirt
G1 X130.220 Y115.210 E11.34296 ; skirt
G1 X129.510 Y115.540 E11.35817 ; skirt
G1 X128.930 Y115.770 E11.37030 ; skirt
G1 X128.180 Y116.020 E11.38566 ; skirt
G1 X127.570 Y116.180 E11.39791 ; skirt
G1 X126.760 Y116.340 E11.41395 ; skirt
G1 X126.140 Y116.420 E11.42610 ; skirt
G1 X125.210 Y116.480 E11.44420 ; skirt
G1 X74.800 Y116.480 E12.42362 ; skirt
G1 X73.850 Y116.420 E12.44212 ; skirt
G1 X73.230 Y116.340 E12.45426 ; skirt
G1 X72.420 Y116.180 E12.47030 ; skirt
G1 X71.810 Y116.020 E12.48256 ; skirt
G1 X71.060 Y115.770 E12.49792 ; skirt
G1 X70.480 Y115.540 E12.51004 ; skirt
G1 X69.770 Y115.210 E12.52525 ; skirt
G1 X69.220 Y114.910 E12.53742 ; skirt
G1 X68.520 Y114.460 E12.55359 ; skirt
G1 X68.010 Y114.090 E12.56583 ; skirt
G1 X67.390 Y113.580 E12.58143 ; skirt
G1 X66.930 Y113.150 E12.59367 ; skirt
G1 X66.330 Y112.520 E12.61057 ; skirt
G1 X65.930 Y112.030 E12.62286 ; skirt
G1 X65.500 Y111.430 E12.63720 ; skirt
G1 X65.160 Y110.900 E12.64943 ; skirt
G1 X64.730 Y110.130 E12.66657 ; skirt
G1 X64.470 Y109.570 E12.67856 ; skirt
G1 X64.200 Y108.890 E12.69278 ; skirt
G1 X64.000 Y108.290 E12.70507 ; skirt
G1 X63.790 Y107.470 E12.72151 ; skirt
G1 X63.670 Y106.850 E12.73378 ; skirt
G1 X63.560 Y105.930 E12.75179 ; skirt
G1 X63.520 Y104.990 E12.77007 ; skirt
G1 X63.520 Y94.990 E12.96436 ; skirt
G1 X63.560 Y94.060 E12.98244 ; skirt
G1 X63.670 Y93.140 E13.00044 ; skirt
G1 X63.790 Y92.520 E13.01271 ; skirt
G1 X64.000 Y91.700 E13.02916 ; skirt
G1 X64.200 Y91.100 E13.04145 ; skirt
G1 X64.470 Y90.420 E13.05566 ; skirt
G1 X64.730 Y89.860 E13.06766 ; skirt
G1 X65.160 Y89.090 E13.08479 ; skirt
G1 X65.500 Y88.560 E13.09703 ; skirt
G1 X65.930 Y87.960 E13.11137 ; skirt
G1 X66.330 Y87.470 E13.12366 ; skirt
G1 X66.930 Y86.840 E13.14056 ; skirt
G1 X67.390 Y86.410 E13.15280 ; skirt
G1 X67.955 Y85.946 E13.16700 ; skirt
G1 F1800.000 E11.36700 ; retract
G92 E0 ; reset extrusion distance
G1 X122.366 Y99.324 F3000.000 ; move to first perimeter point
G1 F1800.000 E1.80000 ; compensate retraction
G1 X122.472 Y98.999 F630.000 E1.80664 ; perimeter
G1 X122.617 Y98.690 E1.81327 ; perimeter
G1 X122.800 Y98.402 E1.81991 ; perimeter
G1 X123.018 Y98.138 E1.82654 ; perimeter
G1 X123.267 Y97.905 E1.83317 ; perimeter
G1 X123.543 Y97.704 E1.83981 ; perimeter
G1 X123.842 Y97.540 E1.84645 ; perimeter
G1 X124.160 Y97.414 E1.85308 ; perimeter
G1 X124.490 Y97.329 E1.85971 ; perimeter
G1 X124.829 Y97.286 E1.86635 ; perimeter
G1 X125.171 Y97.286 E1.87298 ; perimeter
G1 X125.509 Y97.329 E1.87962 ; perimeter
G1 X125.840 Y97.414 E1.88625 ; perimeter
G1 X126.158 Y97.540 E1.89289 ; perimeter
G1 X126.457 Y97.704 E1.89952 ; perimeter
G1 X126.733 Y97.905 E1.90616 ; perimeter
G1 X126.982 Y98.139 E1.91279 ; perimeter
G1 X127.200 Y98.402 E1.91943 ; perimeter
G1 X127.353 Y98.643 E1.92498 ; perimeter
G1 X127.528 Y98.999 E1.93269 ; perimeter
G1 X127.634 Y99.324 E1.93933 ; perimeter
G1 X127.698 Y99.659 E1.94596 ; perimeter
G1 X127.719 Y100.000 E1.95259 ; perimeter
G1 X127.698 Y100.341 E1.95923 ; perimeter
G1 X127.634 Y100.676 E1.96586 ; perimeter
G1 X127.528 Y101.001 E1.97250 ; perimeter
G1 X127.383 Y101.310 E1.97913 ; perimeter
G1 X127.200 Y101.598 E1.98577 ; perimeter
G1 X126.982 Y101.861 E1.99240 ; perimeter
G1 X126.733 Y102.095 E1.99904 ; perimeter
G1 X126.457 Y102.296 E2.00567 ; perimeter
G1 X126.158 Y102.460 E2.01231 ; perimeter
G1 X125.840 Y102.586 E2.01894 ; perimeter
G1 X125.510 Y102.671 E2.02557 ; perimeter
G1 X125.171 Y102.714 E2.03221 ; perimeter
G1 X124.829 Y102.714 E2.03885 ; perimeter
G1 X124.490 Y102.671 E2.04548 ; perimeter
G1 X124.160 Y102.586 E2.05211 ; perimeter
G1 X123.842 Y102.460 E2.05875 ; perimeter
G1 X123.543 Y102.296 E2.06539 ; perimeter
G1 X123.267 Y102.095 E2.07202 ; perimeter
G1 X123.018 Y101.862 E2.07865 ; perimeter
G1 X122.800 Y101.598 E2.08529 ; perimeter
G1 X122.617 Y101.310 E2.09192 ; perimeter
G1 X122.472 Y101.001 E2.09856 ; perimeter
G1 X122.366 Y100.676 E2.10519 ; perimeter
G1 X122.302 Y100.341 E2.11183 ; perimeter
G1 X122.281 Y100.000 E2.11846 ; perimeter
G1 X122.302 Y99.659 E2.12509 ; perimeter
G1 X122.353 Y99.394 E2.13033 ; perimeter
G1 X122.826 Y99.468 F3000.000 ; move to first perimeter point
G1 X122.917 Y99.176 F630.000 E2.13629 ; perimeter
G1 X123.037 Y98.921 E2.14176 ; perimeter
G1 X123.188 Y98.684 E2.14722 ; perimeter
G1 X123.367 Y98.467 E2.15269 ; perimeter
G1 X123.572 Y98.274 E2.15815 ; perimeter
G1 X123.800 Y98.109 E2.16361 ; perimeter
G1 X124.046 Y97.973 E2.16908 ; perimeter
G1 X124.308 Y97.870 E2.17455 ; perimeter
G1 X124.580 Y97.800 E2.18001 ; perimeter
G1 X124.859 Y97.765 E2.18548 ; perimeter
G1 X125.141 Y97.765 E2.19094 ; perimeter
G1 X125.420 Y97.800 E2.19640 ; perimeter
G1 X125.692 Y97.870 E2.20187 ; perimeter
G1 X125.954 Y97.973 E2.20733 ; perimeter
G1 X126.200 Y98.109 E2.21280 ; perimeter
G1 X126.428 Y98.274 E2.21826 ; perimeter
G1 X126.633 Y98.467 E2.22373 ; perimeter
G1 X126.812 Y98.684 E2.22919 ; perimeter
G1 X126.949 Y98.899 E2.23416 ; perimeter
G1 X127.082 Y99.175 E2.24012 ; perimeter
G1 X127.169 Y99.443 E2.24559 ; perimeter
G1 X127.222 Y99.719 E2.25105 ; perimeter
G1 X127.240 Y100.000 E2.25651 ; perimeter
G1 X127.222 Y100.281 E2.26198 ; perimeter
G1 X127.169 Y100.557 E2.26744 ; perimeter
G1 X127.082 Y100.825 E2.27291 ; perimeter
G1 X126.963 Y101.079 E2.27837 ; perimeter
G1 X126.812 Y101.316 E2.28384 ; perimeter
G1 X126.633 Y101.533 E2.28930 ; perimeter
